!!!!SEGMENT: pl-wtm--r-1024-2_kurpinski-karol-kazimierz--polonez.krn
!!!id: 18xx:2299
!!!COM: Kurpiński, Karol Kazimierz
!!!COM-rism: pe30018952
!!!CDT: 1785/03/06-1857/09/18
!!!CNT: Polish
!!!OTL: Polonez
!!!PDT: 1818
!!!SMS-siglum: PL-Wtm
!!!SMS-shelfmark: R 1024/2
!!!NIFC-rismID: 1001087649
!!!URL-scan: http://repozytorium.nifc.pl/skany/pl-wtm-nut--r1024
!!!ONB-nifc: UWAGA: drugi Polonez od skanu 0016
!!!SMS-variant:
!!!SMS-altvar:
**kern	**dynam	**kern	**dynam	**kern	**dynam	**kern	**dynam	**kern	**dynam	**kern	**dynam	**kern	**dynam	**kern	**dynam	**kern	**dynam	**kern	**dynam	**kern	**dynam
*part11	*part11	*part10	*part10	*part9	*part9	*part8	*part8	*part7	*part7	*part6	*part6	*part5	*part5	*part4	*part4	*part3	*part3	*part2	*part2	*part1	*part1
*staff11	*	*staff10	*	*staff9	*	*staff8	*	*staff7	*	*staff6	*	*staff5	*	*staff4	*	*staff3	*	*staff2	*	*staff1	*
*I"Baſsi	*	*I"Tymp c g	*	*I"Trombe in C	*	*I"Fag:	*	*I"Corni in F	*	*I"Clarinetti in C	*	*I"Ob:	*	*I"Flauto et Flautino	*	*I"Viole	*	*I"V: 2	*	*I"V. 1	*
*>[A,B,A,B,C,C,B,C,D,D,E,E]	*>[A,B,A,B,C,C,B,C,D,D,E,E]	*>[A,B,A,B,C,C,B,C,D,D,E,E]	*>[A,B,A,B,C,C,B,C,D,D,E,E]	*>[A,B,A,B,C,C,B,C,D,D,E,E]	*>[A,B,A,B,C,C,B,C,D,D,E,E]	*>[A,B,A,B,C,C,B,C,D,D,E,E]	*>[A,B,A,B,C,C,B,C,D,D,E,E]	*>[A,B,A,B,C,C,B,C,D,D,E,E]	*>[A,B,A,B,C,C,B,C,D,D,E,E]	*>[A,B,A,B,C,C,B,C,D,D,E,E]	*>[A,B,A,B,C,C,B,C,D,D,E,E]	*>[A,B,A,B,C,C,B,C,D,D,E,E]	*>[A,B,A,B,C,C,B,C,D,D,E,E]	*>[A,B,A,B,C,C,B,C,D,D,E,E]	*>[A,B,A,B,C,C,B,C,D,D,E,E]	*>[A,B,A,B,C,C,B,C,D,D,E,E]	*>[A,B,A,B,C,C,B,C,D,D,E,E]	*>[A,B,A,B,C,C,B,C,D,D,E,E]	*>[A,B,A,B,C,C,B,C,D,D,E,E]	*>[A,B,A,B,C,C,B,C,D,D,E,E]	*>[A,B,A,B,C,C,B,C,D,D,E,E]
*>A	*>A	*>A	*>A	*>A	*>A	*>A	*>A	*>A	*>A	*>A	*>A	*>A	*>A	*>A	*>A	*>A	*>A	*>A	*>A	*>A	*>A
*clefF4	*	*clefF4	*	*clefG2	*	*clefF4	*	*clefG2	*	*clefG2	*	*clefG2	*	*clefG2	*	*clefC3	*	*clefG2	*	*clefG2	*
*	*	*	*	*	*	*	*	*ITrd4c7	*	*	*	*	*	*	*	*	*	*	*	*	*
*k[]	*	*k[]	*	*k[]	*	*k[]	*	*k[]	*	*k[]	*	*k[]	*	*k[]	*	*k[]	*	*k[]	*	*k[]	*
*M3/4	*	*M3/4	*	*M3/4	*	*M3/4	*	*M3/4	*	*M3/4	*	*M3/4	*	*M3/4	*	*M3/4	*	*M3/4	*	*M3/4	*
=1	=1	=1	=1	=1	=1	=1	=1	=1	=1	=1	=1	=1	=1	=1	=1	=1	=1	=1	=1	=1	=1
*	*	*	*	*^	*	*	*	*^	*	*	*	*	*	*	*	*	*	*	*	*	*
32qqG/LLL	.	.	.	.	.	.	.	.	.	.	.	.	.	.	.	.	.	.	.	.	.	.	.
32qqA/	.	.	.	.	.	.	.	.	.	.	.	.	.	.	.	.	.	.	.	.	.	.	.
32qqB/JJJ	.	.	.	.	.	.	.	.	.	.	.	.	.	.	.	.	.	.	.	.	.	.	.
!	!	!	!	!	!	!	!	!	!	!	!	!	!	!	!	!LO:TX:a:t=Fl&colon;to	!	!	!	!	!	!	!
!LO:TX:t=P:problem:mixed beam	!	!	!	!	!	!	!	!	!	!	!LO:DY:rj	!	!LO:DY:rj	!	!LO:DY:rj	!LO:TX:b:t=Fltino	!	!LO:TX:t=P:problem:mixed beam	!	!LO:TX:a:t=Uniſ	!	!LO:TX:a:t=Nr. 2.	!
8.c\L	.	8C\L	.	8c/L	8c\L	.	4C 4CC/	.	8c/L	8c\L	f	4cc 4e/	f	4cc 4e/	f	4ccc 4ee\	.	8.ccL 8.e 8.G\	.	8.ccLyy 8.eyy 8.G/yy	.	8.ccL 8.e 8.G/	.
.	.	16C\L	.	16c/L	16c\L	.	.	.	16c/L	16c\L	.	.	.	.	.	.	.	.	.	.	.	.	.
16CJk 16CC/	.	16C\JJ	.	16c/JJ	16c\JJ	.	.	.	16c/JJ	16c\JJ	.	.	.	.	.	.	.	16cJk 16C/	.	16c/Jkyy	.	16c/Jk	.
*	*	*tremolo	*	*tremolo	*tremolo	*	*	*	*tremolo	*tremolo	*	*	*	*	*	*	*	*	*	*	*	*	*
*	*	*2\right	*	*	*2\right	*	*	*	*	*2\right	*	*	*	*	*	*	*	*	*	*	*	*	*
4C 4CC/	.	8C\L	.	8c/L	8c\L	.	8r	.	8c/L	8c\L	.	8r	.	8r	.	8r	.	4c 4C/	.	4c/yy	.	4c/	.
!	!	!	!	!	!	!	!LO:TUP:a:problem:klamra łukowa	!	!	!	!	!	!	!	!	!	!	!	!	!	!	!	!
.	.	8C\	.	8c/	8c\	.	24C\LL	.	8c/	8c\	.	16ccLL 16e/	.	16ccLL 16e/	.	16cccLL 16ee\	.	.	.	.	.	.	.
.	.	.	.	.	.	.	24E\	.	.	.	.	.	.	.	.	.	.	.	.	.	.	.	.
.	.	.	.	.	.	.	.	.	.	.	.	16ccJJ 16e/	.	16ccJJ 16e/	.	16cccJJ 16ee\	.	.	.	.	.	.	.
.	.	.	.	.	.	.	24G\JJ	.	.	.	.	.	.	.	.	.	.	.	.	.	.	.	.
4r	.	8C\	.	8c/	8c\	.	8c\L	.	8c/	8c\	.	8ccL 8e/	.	8ccL 8e/	.	8cccL 8ee\	.	4r	.	4ryy	.	4r	.
.	.	8C\J	.	8c/J	8c\J	.	8c\J	.	8c/J	8c\J	.	8ccJ 8e/	.	8ccJ 8e/	.	8cccJ 8ee\	.	.	.	.	.	.	.
*	*	*	*	*Xtremolo	*Xtremolo	*	*	*	*	*	*	*	*	*	*	*	*	*	*	*	*	*	*
*	*	*	*	*v	*v	*	*	*	*v	*v	*	*	*	*	*	*	*	*	*	*	*	*	*
=2	=2	=2	=2	=2	=2	=2	=2	=2	=2	=2	=2	=2	=2	=2	=2	=2	=2	=2	=2	=2	=2
32qqG/LLL	.	.	.	.	.	.	.	.	.	.	.	.	.	.	.	.	.	.	.	.	.
32qqA/	.	.	.	.	.	.	.	.	.	.	.	.	.	.	.	.	.	.	.	.	.
32qqB/JJJ	.	.	.	.	.	.	.	.	.	.	.	.	.	.	.	.	.	.	.	.	.
!LO:TX:t=P:problem:mixed beam	!	!	!	!	!	!	!	!	!	!	!	!	!	!	!	!	!	!	!	!	!
8.c\L	.	8C\L	.	8eL 8c/	.	4C 4CC/	.	8gL 8c\	.	4ee 4cc\	.	4ee 4cc\	.	4eee 4ccc\	.	8.ccL 8.e 8.G/	.	8.eeLyy 8.ccyy 8.gyy 8.c/yy	.	8.eeL 8.cc 8.g 8.c/	.
.	.	16C\L	.	16eL 16c/	.	.	.	16gL 16c\	.	.	.	.	.	.	.	.	.	.	.	.	.
16CJk 16CC/	.	16C\JJ	.	16eJJ 16c/	.	.	.	16gJJ 16c\	.	.	.	.	.	.	.	16cJk 16C/	.	16c/Jkyy	.	16c/Jk	.
4C 4CC/	.	8C\L	.	8eL 8c/	.	8r	.	8gL 8c\	.	8r	.	8r	.	8r	.	4c 4C/	.	4c/yy	.	4c/	.
!	!	!	!	!	!	!LO:TUP:a:problem:klamra łukowa	!	!	!	!	!	!	!	!	!	!	!	!	!	!	!
.	.	8C\	.	8e 8c/	.	24C\LL	.	8g 8c\	.	16eeLL 16cc\	.	16eeLL 16cc\	.	16eeeLL 16ccc\	.	.	.	.	.	.	.
.	.	.	.	.	.	24E\	.	.	.	.	.	.	.	.	.	.	.	.	.	.	.
.	.	.	.	.	.	.	.	.	.	16eeJJ 16cc\	.	16eeJJ 16cc\	.	16eeeJJ 16ccc\	.	.	.	.	.	.	.
.	.	.	.	.	.	24G\JJ	.	.	.	.	.	.	.	.	.	.	.	.	.	.	.
4r	.	8C\	.	8e 8c/	.	8c\L	.	8g 8c\	.	8eeL 8cc\	.	8eeL 8cc\	.	8eeeL 8ccc\	.	4r	.	4ryy	.	4r	.
.	.	8C\J	.	8eJ 8c/	.	8c\J	.	8gJ 8c\	.	8eeJ 8cc\	.	8eeJ 8cc\	.	8eeeJ 8ccc\	.	.	.	.	.	.	.
*	*	*	*	*	*	*	*	*Xtremolo	*	*	*	*	*	*	*	*	*	*	*	*	*
=3	=3	=3	=3	=3	=3	=3	=3	=3	=3	=3	=3	=3	=3	=3	=3	=3	=3	=3	=3	=3	=3
*	*	*	*	*	*	*^	*	*	*	*^	*	*^	*	*^	*	*	*	*	*	*	*
*	*	*	*	*	*	*	*	*	*	*	*	*	*	*	*	*	*	*	*	*tremolo	*	*	*	*	*
32qqG/LLL	.	.	.	.	.	.	.	.	.	.	.	.	.	.	.	.	.	.	.	.	.	.	.	.	.
32qqA/	.	.	.	.	.	.	.	.	.	.	.	.	.	.	.	.	.	.	.	.	.	.	.	.	.
32qqB/JJJ	.	.	.	.	.	.	.	.	.	.	.	.	.	.	.	.	.	.	.	.	.	.	.	.	.
*	*	*	*	*	*	*clefC4	*	*	*	*	*	*	*	*	*2\right	*	*	*	*	*2\right	*	*	*	*	*
8c\L	.	16C/LL	.	2.g 2.e/	.	2g/	2e\	sf >]	2.cc 2.c/	.	2gg/	2ee\	.	2gg/	2.ee\	.	4ggg/	4eee\	.	16eLL 16c\	.	8ggLyy 8ccyy 8e/yy	.	8ggL 8cc 8e/	.
.	.	16C/	.	.	.	.	.	.	.	.	.	.	.	.	.	.	.	.	.	16e 16c\	.	.	.	.	.
*	*	*	*	*	*	*	*	*	*	*	*	*	*	*	*	*	*	*	*	*	*	*Xtuplet	*	*Xtuplet	*
*	*	*	*	*	*	*	*	*	*	*	*	*	*	*	*	*	*	*	*	*	*	*rscale:1/2	*	*rscale:1/2	*
16r	.	16C/	.	.	.	.	.	.	.	.	.	.	.	.	.	.	.	.	.	16e 16c\	.	(y<56c/LLyy	.	(<56c/LL	.
.	.	.	.	.	.	.	.	.	.	.	.	.	.	.	.	.	.	.	.	.	.	56d/yy	.	56d/	.
.	.	.	.	.	.	.	.	.	.	.	.	.	.	.	.	.	.	.	.	.	.	56e/yy	.	56e/	.
.	.	.	.	.	.	.	.	.	.	.	.	.	.	.	.	.	.	.	.	.	.	56f/yy	.	56f/	.
*Xtuplet	*	*	*	*	*	*	*	*	*	*	*	*	*	*	*	*	*	*	*	*	*	*	*	*	*
48G\LL	.	16C/	.	.	.	.	.	.	.	.	.	.	.	.	.	.	.	.	.	16e 16c\	.	.	.	.	.
.	.	.	.	.	.	.	.	.	.	.	.	.	.	.	.	.	.	.	.	.	.	56g/yy	.	56g/	.
48A\	.	.	.	.	.	.	.	.	.	.	.	.	.	.	.	.	.	.	.	.	.	.	.	.	.
.	.	.	.	.	.	.	.	.	.	.	.	.	.	.	.	.	.	.	.	.	.	56a/yy	.	56a/	.
48B\JJJ	.	.	.	.	.	.	.	.	.	.	.	.	.	.	.	.	.	.	.	.	.	.	.	.	.
.	.	.	.	.	.	.	.	.	.	.	.	.	.	.	.	.	.	.	.	.	.	56b/JJJyy	.	56b/JJJ	.
*	*	*	*	*	*	*	*	*	*	*	*	*	*	*	*	*	*	*	*	*	*	*rscale:1	*	*rscale:1	*
16c\LL	.	16C/	.	.	.	.	.	.	.	.	.	.	.	.	.	.	4eee/	4ccc\	.	16e 16c\	.	16cc\LL)yy	.	16cc\LL)	.
16B\	.	16C/	.	.	.	.	.	.	.	.	.	.	.	.	.	.	.	.	.	16e 16c\	.	16dd\yy	.	16dd\	.
16A\	.	16C/	.	.	.	.	.	.	.	.	.	.	.	.	.	.	.	.	.	16e 16c\	.	16ee\yy	.	16ee\	.
16G\JJ	.	16C/	.	.	.	.	.	.	.	.	.	.	.	.	.	.	.	.	.	16e 16c\	.	16ff\JJyy	.	16ff\JJ	.
16F\LL	.	16C/	.	.	.	8e/L	4c\	.	.	.	4ee/	4cc\	.	4ccc/	.	.	4ccc/	4ee\	.	16e 16c\	.	16gg\LLyy	.	16gg\LL	.
16E\	.	16C/	.	.	.	.	.	.	.	.	.	.	.	.	.	.	.	.	.	16e 16c\	.	16aa\yy	.	16aa\	.
16D\	.	16C/	.	.	.	8c/J	.	.	.	.	.	.	.	.	.	.	.	.	.	16e 16c\	.	16bb\yy	.	16bb\	.
16C\JJ	.	16C/JJ	.	.	.	.	.	.	.	.	.	.	.	.	.	.	.	.	.	16eJJ 16c\	.	16ccc\JJyy	.	16ccc\JJ	.
*	*	*Xtremolo	*	*	*	*clefF4	*	*	*	*	*	*	*	*	*	*	*	*	*	*Xtremolo	*	*	*	*	*
*	*	*	*	*	*	*	*	*	*	*	*	*	*	*v	*v	*	*	*	*	*	*	*	*	*	*
*	*	*	*	*	*	*v	*v	*	*	*	*	*	*	*	*	*v	*v	*	*	*	*	*	*	*
=4	=4	=4	=4	=4	=4	=4	=4	=4	=4	=4	=4	=4	=4	=4	=4	=4	=4	=4	=4	=4	=4	=4
*	*	*	*	*^	*	*	*	*^	*	*	*	*	*	*	*	*	*	*	*	*	*	*
16A\LL	.	4C/	.	4r	4ryy	.	16A\LL	.	4.a/	4.a\	.	16aa\LL	4ryy	.	16aa\LL	.	16aa\LL	.	16a\LL	.	16aa\LLyy	.	16aa\LL	.
16G\	.	.	.	.	.	.	16G\	.	.	.	.	16gg\	.	.	16gg\	.	16gg\	.	16g\	.	16gg\yy	.	16gg\	.
16F\	.	.	.	.	.	.	16F\	.	.	.	.	16ff\	.	.	16ff\	.	16ff\	.	16f\	.	16ff\yy	.	16ff\	.
16E\JJ	.	.	.	.	.	.	16E\JJ	.	.	.	.	16ee\JJ	.	.	16ee\JJ	.	16ee\JJ	.	16e\JJ	.	16ee\JJyy	.	16ee\JJ	.
16D/LL	.	4C/	.	4dd/	4dd\	.	16D/LL	.	.	.	.	16dd\LL	4ryy	.	16dd\LL	.	16dd\LL	.	16d/LL	.	16dd\LLyy	.	16dd\LL	.
16C/	.	.	.	.	.	.	16C/	.	.	.	.	16cc\	.	.	16cc\	.	16cc\	.	16c/	.	16cc\yy	.	16cc\	.
16BB/	.	.	.	.	.	.	16BB/	.	8a/	8a\	.	16b\	.	.	16b\	.	16b\	.	16B/	.	16b\yy	.	16b\	.
16AA/JJ	.	.	.	.	.	.	16AA/JJ	.	.	.	.	16a\JJ	.	.	16a\JJ	.	16a\JJ	.	16A/JJ	.	16a\JJyy	.	16a\JJ	.
!LO:TX:a:t=[segno]:problem:znak segno na kresce taktowej	!	!LO:TX:a:t=[segno]:problem:znak segno na kresce taktowej	!	!LO:TX:a:t=[segno]:problem:znak segno na kresce taktowej	!LO:TX:a:t=[segno]:problem:znak segno na kresce taktowej	!	!LO:TX:a:t=[segno]:problem:znak segno na kresce taktowej	!	!LO:TX:a:t=[segno]:problem:znak segno na kresce taktowej	!LO:TX:a:t=[segno]:problem:znak segno na kresce taktowej	!	!LO:TX:a:t=[segno]:problem:znak segno na kresce taktowej	!LO:TX:a:t=[segno]:problem:znak segno na kresce taktowej	!	!LO:TX:a:t=[segno]:problem:znak segno na kresce taktowej	!	!LO:TX:a:t=[segno]:problem:znak segno na kresce taktowej	!	!LO:TX:a:t=[segno]:problem:znak segno na kresce taktowej	!	!LO:TX:a:t=[segno]:problem:znak segno na kresce taktowej	!	!LO:TX:a:t=[segno]:problem:znak segno na kresce taktowej	!
4GG/	.	4GG/	.	4g/	4g\	.	4GG/	.	4g/	4g\	.	4g/	4g\	.	4g/	.	4g/	.	4G/	.	4g/yy	.	4g/	.
*	*	*	*	*	*	*	*	*	*v	*v	*	*	*	*	*	*	*	*	*	*	*	*	*	*
*	*	*	*	*v	*v	*	*	*	*	*	*v	*v	*	*	*	*	*	*	*	*	*	*	*
=5||	=5||	=5||	=5||	=5||	=5||	=5||	=5||	=5||	=5||	=5||	=5||	=5||	=5||	=5||	=5||	=5||	=5||	=5||	=5||	=5||	=5||
*>B	*>B	*>B	*>B	*>B	*>B	*>B	*>B	*>B	*>B	*>B	*>B	*>B	*>B	*>B	*>B	*>B	*>B	*>B	*>B	*>B	*>B
*	*	*	*	*	*	*	*	*	*	*	*	*	*	*	*	*	*	*tremolo	*	*tremolo	*
!LO:TX:b:t=pizzic	!	!	!	!	!	!	!	!	!	!	!	!	!	!	!	!LO:TX:b:t=pizz	!	!	!LO:DY:rj	!	!LO:DY:rj
8C/	.	2.r	.	2.r	.	2.r	.	2.r	.	[4ee 4cc\	.	2.r	.	2.r	.	8e 8c\	.	8c/L	p	8e/L	p
8r	.	.	.	.	.	.	.	.	.	.	.	.	.	.	.	8r	.	8e/	.	8g/	.
8C/	.	.	.	.	.	.	.	.	.	16ee]LL 16cc\	.	.	.	.	.	8e 8c\	.	8c/	.	8e/	.
.	.	.	.	.	.	.	.	.	.	16ff 16dd\	.	.	.	.	.	.	.	.	.	.	.
8r	.	.	.	.	.	.	.	.	.	16gg 16ee\	.	.	.	.	.	8r	.	8e/	.	8g/	.
.	.	.	.	.	.	.	.	.	.	16aaJJ 16ff\	.	.	.	.	.	.	.	.	.	.	.
8C/	.	.	.	.	.	.	.	.	.	8ggL 8ee\	.	.	.	.	.	8e 8c\	.	8c/	.	8e/	.
8r	.	.	.	.	.	.	.	.	.	8ggJ 8ee\	.	.	.	.	.	8r	.	8e/J	.	8g/J	.
=6	=6	=6	=6	=6	=6	=6	=6	=6	=6	=6	=6	=6	=6	=6	=6	=6	=6	=6	=6	=6	=6
*rep	*	*	*	*	*	*	*	*	*	*	*	*	*	*	*	*rep	*	*rep	*	*	*
8C/	.	2.r	.	2.r	.	2.r	.	2.r	.	(8ggL 8ee\	.	2.r	.	2.r	.	8e 8c\	.	8c/L	.	8e/L	.
8r	.	.	.	.	.	.	.	.	.	16eeJk 16cc\)	.	.	.	.	.	8r	.	8e/	.	8g/	.
.	.	.	.	.	.	.	.	.	.	16r	.	.	.	.	.	.	.	.	.	.	.
8C/	.	.	.	.	.	.	.	.	.	(8ggL 8ee\	.	.	.	.	.	8e 8c\	.	8c/	.	8e/	.
8r	.	.	.	.	.	.	.	.	.	16eeJk 16cc\)	.	.	.	.	.	8r	.	8e/	.	8g/	.
.	.	.	.	.	.	.	.	.	.	16r	.	.	.	.	.	.	.	.	.	.	.
8C/	.	.	.	.	.	.	.	.	.	(8ggL 8ee\	.	.	.	.	.	8e 8c\	.	8c/	.	8e/	.
8r	.	.	.	.	.	.	.	.	.	16eeJk 16cc\)	.	.	.	.	.	8r	.	8e/J	.	8g/J	.
.	.	.	.	.	.	.	.	.	.	16r	.	.	.	.	.	.	.	.	.	.	.
*Xrep	*	*	*	*	*	*	*	*	*	*	*	*	*	*	*	*Xrep	*	*Xrep	*	*	*
=7	=7	=7	=7	=7	=7	=7	=7	=7	=7	=7	=7	=7	=7	=7	=7	=7	=7	=7	=7	=7	=7
*rep	*	*	*	*	*	*	*	*	*	*	*	*	*	*	*	*	*	*	*	*	*
8C/	.	2.r	.	2.r	.	2.r	.	2.r	.	8ggL 8ee\|	.	2.r	.	2.r	.	8e 8c\	.	8c/L	.	8e/L	.
8r	.	.	.	.	.	.	.	.	.	(16aaL 16ff\	.	.	.	.	.	8r	.	8e/	.	8g/	.
.	.	.	.	.	.	.	.	.	.	16ggJJ 16ee\	.	.	.	.	.	.	.	.	.	.	.
8C/	.	.	.	.	.	.	.	.	.	16aaLL 16ff\	.	.	.	.	.	8e 8c\	.	8c/	.	8e/	.
.	.	.	.	.	.	.	.	.	.	16gg 16ee\	.	.	.	.	.	.	.	.	.	.	.
8r	.	.	.	.	.	.	.	.	.	16aa 16ff\	.	.	.	.	.	8r	.	8e/	.	8g/	.
.	.	.	.	.	.	.	.	.	.	16ggJJ 16ee\	.	.	.	.	.	.	.	.	.	.	.
8C/	.	.	.	.	.	.	.	.	.	16ff#XLL 16dd#X\	<	.	.	.	.	8e 8c\	.	8c/	.	8e/	.
.	.	.	.	.	.	.	.	.	.	16gg 16ee\	.	.	.	.	.	.	.	.	.	.	.
!	!	!	!	!	!	!	!	!	!	!LO:SIC:v:s=ffn	!	!	!	!	!	!	!	!	!	!	!
8r	.	.	.	.	.	.	.	.	.	16aa 16ff#\	[ >	.	.	.	.	8r	.	8e/J	.	8g/J	.
.	.	.	.	.	.	.	.	.	.	16ggJJ 16ee\)	]]	.	.	.	.	.	.	.	.	.	.
*Xrep	*	*	*	*	*	*	*	*	*	*	*	*	*	*	*	*	*	*	*	*	*
!!LO:PB:g=original
=8	=8	=8	=8	=8	=8	=8	=8	=8	=8	=8	=8	=8	=8	=8	=8	=8	=8	=8	=8	=8	=8
*	*	*	*	*	*	*	*	*	*	*	*	*^	*	*	*	*	*	*	*	*	*
*	*	*	*	*	*	*clefC4	*	*	*	*	*	*	*	*	*	*	*	*	*	*	*	*
!	!	!	!	!	!	!LO:TX:b:t=Solo	!	!	!	!	!	!	!	!	!	!	!	!	!	!	!	!
8G\	.	2.r	.	2.r	.	4r	.	2.r	.	8.ggL 8.ee\	.	4r	2.r	.	4r	.	8d 8B\	.	8B/L	.	8d/L	.
8r	.	.	.	.	.	.	.	.	.	.	.	.	.	.	.	.	8r	.	8d/	.	8g/	.
.	.	.	.	.	.	.	.	.	.	16ff#XJk 16dd#X\	.	.	.	.	.	.	.	.	.	.	.	.
8G\	.	.	.	.	.	16f\LL	.	.	.	4ffn 4ddn\	.	16ff/LL	.	.	16ff\LL	.	8d 8B\	.	8B/	.	8d/	.
.	.	.	.	.	.	16g\	.	.	.	.	.	16gg/	.	.	16gg\	.	.	.	.	.	.	.
8r	.	.	.	.	.	16a\	.	.	.	.	.	16aa/	.	.	16aa\	.	8r	.	8d/	.	8g/	.
.	.	.	.	.	.	16g\JJ	.	.	.	.	.	16gg/JJ	.	.	16gg\JJ	.	.	.	.	.	.	.
8G\	.	.	.	.	.	16f\LL	.	.	.	4r	.	16ff/LL	.	.	16ff\LL	.	8d 8B\	.	8B/	.	8d/	.
.	.	.	.	.	.	16e\	.	.	.	.	.	16ee/	.	.	16ee\	.	.	.	.	.	.	.
8r	.	.	.	.	.	16d\	.	.	.	.	.	16dd/	.	.	16dd\	.	8r	.	8d/J	.	8g/J	.
.	.	.	.	.	.	16c\JJ	.	.	.	.	.	16cc/JJ	.	.	16cc\JJ	.	.	.	.	.	.	.
=9	=9	=9	=9	=9	=9	=9	=9	=9	=9	=9	=9	=9	=9	=9	=9	=9	=9	=9	=9	=9	=9	=9
*rep	*	*	*	*	*	*	*	*	*	*	*	*	*	*	*	*	*rep	*	*rep	*	*rep	*
8G\	.	2.r	.	2.r	.	4B\	.	2.r	.	[4dd 4b\	.	4b/	2.r	.	4b\	.	8d 8B\	.	8B/L	.	8d/L	.
8r	.	.	.	.	.	.	.	.	.	.	.	.	.	.	.	.	8r	.	8d/	.	8g/	.
8G\	.	.	.	.	.	4r	.	.	.	16dd]LL 16b\	.	4r	.	.	4r	.	8d 8B\	.	8B/	.	8d/	.
.	.	.	.	.	.	.	.	.	.	16ee 16cc\	.	.	.	.	.	.	.	.	.	.	.	.
8r	.	.	.	.	.	.	.	.	.	16ff 16dd\	.	.	.	.	.	.	8r	.	8d/	.	8g/	.
.	.	.	.	.	.	.	.	.	.	16ggJJ 16ee\	.	.	.	.	.	.	.	.	.	.	.	.
8G\	.	.	.	.	.	4r	.	.	.	8ffL 8dd\	.	4r	.	.	4r	.	8d 8B\	.	8B/	.	8d/	.
8r	.	.	.	.	.	.	.	.	.	8ffJ 8dd\	.	.	.	.	.	.	8r	.	8d/J	.	8g/J	.
*Xrep	*	*	*	*	*	*	*	*	*	*	*	*	*	*	*	*	*Xrep	*	*Xrep	*	*Xrep	*
*	*	*	*	*	*	*	*	*	*	*	*	*v	*v	*	*	*	*	*	*	*	*	*
=10	=10	=10	=10	=10	=10	=10	=10	=10	=10	=10	=10	=10	=10	=10	=10	=10	=10	=10	=10	=10	=10
*rep	*	*	*	*	*	*	*	*	*	*	*	*	*	*	*	*rep	*	*rep	*	*rep	*
8G\	.	2.r	.	2.r	.	2.r	.	2.r	.	(8ffL 8dd\	.	2.r	.	2.r	.	8d 8B\	.	8B/L	.	8d/L	.
8r	.	.	.	.	.	.	.	.	.	16ddJk 16b\)	.	.	.	.	.	8r	.	8d/	.	8g/	.
.	.	.	.	.	.	.	.	.	.	16r	.	.	.	.	.	.	.	.	.	.	.
8G\	.	.	.	.	.	.	.	.	.	(8ffL 8dd\	.	.	.	.	.	8d 8B\	.	8B/	.	8d/	.
8r	.	.	.	.	.	.	.	.	.	16ddJk 16b\)	.	.	.	.	.	8r	.	8d/	.	8g/	.
.	.	.	.	.	.	.	.	.	.	16r	.	.	.	.	.	.	.	.	.	.	.
8G\	.	.	.	.	.	.	.	.	.	(8ffL 8dd\	.	.	.	.	.	8d 8B\	.	8B/	.	8d/	.
8r	.	.	.	.	.	.	.	.	.	16ddJk 16b\)	.	.	.	.	.	8r	.	8d/J	.	8g/J	.
.	.	.	.	.	.	.	.	.	.	16r	.	.	.	.	.	.	.	.	.	.	.
*Xrep	*	*	*	*	*	*	*	*	*	*	*	*	*	*	*	*Xrep	*	*Xrep	*	*Xrep	*
=11	=11	=11	=11	=11	=11	=11	=11	=11	=11	=11	=11	=11	=11	=11	=11	=11	=11	=11	=11	=11	=11
*rep	*	*	*	*	*	*	*	*	*	*	*	*	*	*	*	*rep	*	*rep	*	*rep	*
8G\	.	2.r	.	2.r	.	2.r	.	2.r	.	8ffL 8dd\|	.	2.r	.	2.r	.	8d 8B\	.	8B/L	.	8d/L	.
8r	.	.	.	.	.	.	.	.	.	(16ggL 16ee\	.	.	.	.	.	8r	.	8d/	.	8g/	.
.	.	.	.	.	.	.	.	.	.	16ffJJ 16dd\	.	.	.	.	.	.	.	.	.	.	.
8G\	.	.	.	.	.	.	.	.	.	16ggLL 16ee\	.	.	.	.	.	8d 8B\	.	8B/	.	8d/	.
.	.	.	.	.	.	.	.	.	.	16ff 16dd\	.	.	.	.	.	.	.	.	.	.	.
8r	.	.	.	.	.	.	.	.	.	16gg 16ee\	.	.	.	.	.	8r	.	8d/	.	8g/	.
.	.	.	.	.	.	.	.	.	.	16ffJJ 16dd\	.	.	.	.	.	.	.	.	.	.	.
8G\	.	.	.	.	.	.	.	.	.	16eeLL 16cc#X\	<	.	.	.	.	8d 8B\	.	8B/	.	8d/	.
.	.	.	.	.	.	.	.	.	.	16ff 16dd\	.	.	.	.	.	.	.	.	.	.	.
8r	.	.	.	.	.	.	.	.	.	16gg 16ee\	[ >	.	.	.	.	8r	.	8d/J	.	8g/J	.
.	.	.	.	.	.	.	.	.	.	16ffJJ 16dd\)	]]	.	.	.	.	.	.	.	.	.	.
*Xrep	*	*	*	*	*	*	*	*	*	*	*	*	*	*	*	*Xrep	*	*Xrep	*	*Xrep	*
*	*	*	*	*	*	*	*	*	*	*	*	*	*	*	*	*	*	*Xtremolo	*	*Xtremolo	*
=12	=12	=12	=12	=12	=12	=12	=12	=12	=12	=12	=12	=12	=12	=12	=12	=12	=12	=12	=12	=12	=12
*	*	*	*	*^	*	*	*	*^	*	*	*	*	*	*	*	*	*	*	*	*	*
8C/	.	2.r	.	4r	4ryy	.	2.r	.	4r	4ryy	.	8.ffL 8.dd\	.	2.r	.	2.r	.	8e 8c\	.	8c/L	.	8e/L	.
8r	.	.	.	.	.	.	.	.	.	.	.	.	.	.	.	.	.	8r	.	8e/J	.	8g/J	.
.	.	.	.	.	.	.	.	.	.	.	.	16dd#XJk 16b\	.	.	.	.	.	.	.	.	.	.	.
8C/	.	.	.	8r	8ryy	.	.	.	8r	8ryy	.	4ee 4cc\	.	.	.	.	.	8e 8c\	.	8c/L	.	8e/L	.
8r	.	.	.	8c/L	8c\L	.	.	.	8c/L	8c\L	.	.	.	.	.	.	.	8r	.	8c/	.	8c/	.
!LO:TX:b:t=arco	!	!	!	!	!	!	!	!	!	!	!	!	!	!	!	!	!	!LO:TX:b:t=arco	!	!	!	!	!
4r	.	.	.	8e/	8e\	.	.	.	8e/	8e\	.	4r	.	.	.	.	.	4r	.	8e/	.	8e/	.
.	.	.	.	8g/J	8g\J	.	.	.	8g/J	8g\J	.	.	.	.	.	.	.	.	.	8g/J	.	8g/J	.
*	*	*	*	*v	*v	*	*	*	*v	*v	*	*	*	*	*	*	*	*	*	*	*	*	*
=13	=13	=13	=13	=13	=13	=13	=13	=13	=13	=13	=13	=13	=13	=13	=13	=13	=13	=13	=13	=13	=13
*	*	*	*	*	*	*clefF4	*	*	*	*	*	*	*	*	*	*	*	*	*	*	*
!	!LO:DY:rj	!	!LO:DY:rj	!	!	!	!	!	!LO:DY:rj	!	!LO:DY:rj	!	!LO:DY:rj:t=f.	!	!	!	!LO:DY:rj	!	!	!	!
4C 4CC/	f	8C/L	f	4cc 4c/	.	4C 4CC/	.	8ccL 8c\	f	16ggLL 16ee\	f	(16gLL 16e/	f	4r	.	8cL 8C/	f	4cc\	.	4cc\	.
.	.	.	.	.	.	.	.	.	.	16aa 16ff\	.	16a 16f/	.	.	.	.	.	.	.	.	.
.	.	16C/L	.	.	.	.	.	16ccL 16c\	.	16gg 16ee\	.	16g 16e/	.	.	.	16cL 16C/	.	.	.	.	.
.	.	16C/JJ	.	.	.	.	.	16ccJJ 16c\	.	16aaJJ 16ff\	.	16aJJ 16f/	.	.	.	16cJJ 16C/	.	.	.	.	.
!	!	!	!	!	!	!	!	!	!	!	!	!	!	!	!	!LO:TX:t=P:problem:mixed beam	!	!	!	!	!
8r	.	4C/	.	8r	.	8r	.	4cc 4c\	.	4gg 4ee\	.	4g 4e/)	.	8r	.	8cL 8C/	.	8r	.	8r	f
!	!	!	!	!	!	!	!	!	!	!	!	!	!	!	!	!	!	!	!LO:DY:rj	!	!
8c\L	.	.	.	16ccLL 16c/	.	8c\L	.	.	.	.	.	.	.	16cccLL 16ee\	.	8cc\	.	(16ee\LL	f	(16ccc\LL	.
.	.	.	.	16ccJJ 16c/	.	.	.	.	.	.	.	.	.	16bbJJ 16gg\	.	.	.	16gg\JJ)	.	16bb\JJ)	.
8A\	.	4r	.	8ccL 8c/	.	8A\	.	4r	.	4r	.	4r	.	16aaLL 16ff\	.	8a\	.	16ff'\LL	.	16aa'\LL	.
.	.	.	.	.	.	.	.	.	.	.	.	.	.	16bb 16gg\	.	.	.	16gg'\	.	16bb'\	.
8F\J	.	.	.	8ccJ 8c/	.	8F\J	.	.	.	.	.	.	.	16ccc 16aa\	.	8f\J	.	16aa'\	.	16ccc'\	.
.	.	.	.	.	.	.	.	.	.	.	.	.	.	16aaJJ 16ff\	.	.	.	16ff'\JJ	.	16aa'\JJ	.
=14	=14	=14	=14	=14	=14	=14	=14	=14	=14	=14	=14	=14	=14	=14	=14	=14	=14	=14	=14	=14	=14
4C 4CC/	.	8C/L	.	4cc 4c/	.	4C 4CC/	.	8ccL 8c\	.	16ggLL 16ee\	.	(16gLL 16e/	.	4gg 4ee\	.	8cL 8C/	.	4ee\	.	4gg\	.
.	.	.	.	.	.	.	.	.	.	16aa 16ff\	.	16a 16f/	.	.	.	.	.	.	.	.	.
.	.	16C/L	.	.	.	.	.	16ccL 16c\	.	16gg 16ee\	.	16g 16e/	.	.	.	16cL 16C/	.	.	.	.	.
.	.	16C/JJ	.	.	.	.	.	16ccJJ 16c\	.	16aaJJ 16ff\	.	16aJJ 16f/	.	.	.	16cJJ 16C/	.	.	.	.	.
!	!	!	!	!	!	!	!	!	!	!	!	!	!	!	!	!LO:TX:t=P:problem:mixed beam	!	!	!	!	!
8r	.	4C/	.	8r	.	8r	.	4cc 4c\	.	4gg 4ee\	.	4g 4e/)	.	8r	.	8cL 8C/	.	8r	.	8r	.
!	!	!	!	!	!	!	!	!	!	!	!	!	!	!LO:TX:a:t=Coi Vni	!	!	!	!	!	!	!
8c\L	.	.	.	16ccLL 16c/	.	8c\L	.	.	.	.	.	.	.	(y16ccc\LLyy	.	8cc\	.	(16ee\LL	.	(16ccc\LL	.
.	.	.	.	16ccJJ 16c/	.	.	.	.	.	.	.	.	.	16bb\JJ)yy	.	.	.	16gg\JJ)	.	16bb\JJ)	.
8A\	.	4r	.	8ccL 8c/	.	8A\	.	4r	.	4r	.	4r	.	16aa\LLyy	.	8a\	.	16ff\LL	.	16aa\LL	.
.	.	.	.	.	.	.	.	.	.	.	.	.	.	16bb\yy	.	.	.	16gg\	.	16bb\	.
8F\J	.	.	.	8ccJ 8c/	.	8F\J	.	.	.	.	.	.	.	16ccc\yy	.	8f\J	.	16aa\	.	16ccc\	.
.	.	.	.	.	.	.	.	.	.	.	.	.	.	16aa\JJyy	.	.	.	16ff\JJ	.	16aa\JJ	.
=15	=15	=15	=15	=15	=15	=15	=15	=15	=15	=15	=15	=15	=15	=15	=15	=15	=15	=15	=15	=15	=15
*	*	*	*	*	*	*	*	*rep	*	*	*	*	*	*	*	*	*	*	*	*	*
4C 4CC/	.	8C/L	.	4cc 4c/	.	4C 4CC/	.	8ccL 8c\	.	16ggLL 16ee\	.	(16gLL 16e/	.	4gg\yy	.	8cL 8C/	.	4ee\	.	4gg\	.
.	.	.	.	.	.	.	.	.	.	16aa 16ff\	.	16a 16f/	.	.	.	.	.	.	.	.	.
.	.	16C/L	.	.	.	.	.	16ccL 16c\	.	16gg 16ee\	.	16g 16e/	.	.	.	16cL 16C/	.	.	.	.	.
.	.	16C/JJ	.	.	.	.	.	16ccJJ 16c\	.	16aaJJ 16ff\	.	16aJJ 16f/	.	.	.	16cJJ 16C/	.	.	.	.	.
!	!	!	!	!	!	!	!	!	!	!	!	!	!	!	!	!LO:TX:t=P:problem:mixed beam	!	!	!	!	!
8r	.	4C/	.	8r	.	8r	.	4cc 4c\	.	4gg 4ee\	.	4g 4e/)	.	8ryy	.	8cL 8C/	.	8r	.	8r	.
8c\L	.	.	.	16ccLL 16c/	.	8c\L	.	.	.	.	.	.	.	(y16ccc\LLyy	.	8cc\	.	(16ee\LL	.	(16ccc\LL	.
.	.	.	.	16ccJJ 16c/	.	.	.	.	.	.	.	.	.	16bb\JJ)yy	.	.	.	16gg\JJ)	.	16bb\JJ)	.
8A\	.	4r	.	8ccL 8c/	.	8A\	.	4r	.	4r	.	4r	.	16aa\LLyy	.	8a\	.	16ff\LL	.	16aa\LL	.
.	.	.	.	.	.	.	.	.	.	.	.	.	.	16bb\yy	.	.	.	16gg\	.	16bb\	.
8F\J	.	.	.	8ccJ 8c/	.	8F\J	.	.	.	.	.	.	.	16ccc\yy	.	8f\J	.	16aa\	.	16ccc\	.
.	.	.	.	.	.	.	.	.	.	.	.	.	.	16aa\JJyy	.	.	.	16ff\JJ	.	16aa\JJ	.
*	*	*	*	*	*	*	*	*Xrep	*	*	*	*	*	*	*	*	*	*	*	*	*
!!LO:PB:g=original
=16	=16	=16	=16	=16	=16	=16	=16	=16	=16	=16	=16	=16	=16	=16	=16	=16	=16	=16	=16	=16	=16
4C 4CC/	.	8C/L	.	4cc 4c/	.	4C 4CC/	.	8ccL 8c\	.	16ggLL 16ee\	.	16gLL 16e/	.	4gg\yy	.	8cL 8C/	.	4ee\	.	4gg\	.
.	.	.	.	.	.	.	.	.	.	16aa 16ff\	.	16a 16f/	.	.	.	.	.	.	.	.	.
.	.	16C/L	.	.	.	.	.	16ccL 16c\	.	16gg 16ee\	.	16g 16e/	.	.	.	16cL 16C/	.	.	.	.	.
.	.	16C/JJ	.	.	.	.	.	16ccJJ 16c\	.	16aaJJ 16ff\	.	16aJJ 16f/	.	.	.	16cJJ 16C/	.	.	.	.	.
!	!	!	!	!	!	!	!	!	!	!	!	!	!	!	!	!LO:TX:t=P:problem:mixed beam	!	!	!	!	!
8r	.	4C/	.	8r	.	8r	.	4cc 4c\	.	4gg 4ee\	.	4g 4e/	.	8ryy	.	8cL 8C/	.	8r	.	8r	.
8c\L	.	.	.	16ccLL 16c/	.	8c\L	.	.	.	.	.	.	.	(y16ccc\LLyy	.	8cc\	.	16ee\LL	.	(16ccc\LL	.
.	.	.	.	16ccJJ 16c/	.	.	.	.	.	.	.	.	.	16bb\JJ)yy	.	.	.	16gg\JJ	.	16bb\JJ)	.
8A\	.	4r	.	8ccL 8c/	.	8A\	.	4r	.	4r	.	4r	.	16aa\LLyy	.	8a\	.	16ff\LL	.	16aa\LL	.
.	.	.	.	.	.	.	.	.	.	.	.	.	.	16bb\yy	.	.	.	16gg\	.	16bb\	.
8F\J	.	.	.	8ccJ 8c/	.	8F\J	.	.	.	.	.	.	.	16ccc\yy	.	8f\J	.	16aa\	.	16ccc\	.
.	.	.	.	.	.	.	.	.	.	.	.	.	.	16aa\JJyy	.	.	.	16ff\JJ	.	16aa\JJ	.
=17	=17	=17	=17	=17	=17	=17	=17	=17	=17	=17	=17	=17	=17	=17	=17	=17	=17	=17	=17	=17	=17
!	!	!	!	!	!	!LO:TX:t=P:problem:mixed beam	!	!	!	!	!	!	!	!	!	!	!	!	!	!	!
8C 8CC/	.	8C/	.	8cc 8c/	.	8C/L	.	8cc 8c\	.	8ggL 8ee\|	.	8gL 8e/	.	8ggL 8ee\	.	8c 8C/	.	8ee\L|	.	8gg\L|	.
*	*	*	*	*	*	*	*	*	*	*	*	*	*	*	*	*	*	*tuplet	*	*tuplet	*
!	!	!	!	!	!	!	!	!	!	!LO:TUP:a:problem:klamra łukowa	!	!	!	!	!	!	!	!LO:TUP:a:problem:klamra łukowa	!	!LO:TUP:a:problem:klamra łukowa	!
8r	.	8r	.	8r	.	8e\	.	8r	.	24ggL 24ee\	.	8ee 8g/	.	8eee 8gg\	.	8r	.	24ee\L	.	24gg\L	.
.	.	.	.	.	.	.	.	.	.	24aa 24ff\	.	.	.	.	.	.	.	24ff\	.	24aa\	.
.	.	.	.	.	.	.	.	.	.	24ggJJ 24ee\	.	.	.	.	.	.	.	24ee\JJ	.	24gg\JJ	.
8C 8CC/	.	8C/	.	8cc 8c/	.	8c\	.	8cc 8c\	.	8eeL 8cc\|	.	8cc 8e/	.	8ccc 8ee\	.	8c 8C/	.	8cc\L|	.	8ee\L|	.
!	!	!	!	!	!	!	!	!	!	!LO:TUP:a:problem:klamra łukowa	!	!	!	!	!	!	!	!LO:TUP:a:problem:klamra łukowa	!	!LO:TUP:a:problem:klamra łukowa	!
8r	.	8r	.	8r	.	8e\	.	8r	.	24ggL 24ee\	.	8ee 8g/	.	8eee 8gg\	.	8r	.	24ee\L	.	24gg\L	.
.	.	.	.	.	.	.	.	.	.	24aa 24ff\	.	.	.	.	.	.	.	24ff\	.	24aa\	.
.	.	.	.	.	.	.	.	.	.	24ggJJ 24ee\	.	.	.	.	.	.	.	24ee\JJ	.	24gg\JJ	.
8C 8CC/	.	8C/	.	8cc 8c/	.	8c\	.	8cc 8c\	.	8eeL 8cc\|	.	8cc 8e/	.	8ccc 8ee\	.	8c 8C/	.	8cc\L|	.	8ee\L|	.
!	!	!	!	!	!	!	!	!	!	!LO:TUP:a:problem:klamra łukowa	!	!	!	!	!	!	!	!LO:TUP:a:problem:klamra łukowa	!	!LO:TUP:a:problem:klamra łukowa	!
8r	.	8r	.	8r	.	8e\J	.	8r	.	24ggL 24ee\	.	8eeJ 8g/	.	8eeeJ 8gg\	.	8r	.	24ee\L	.	24gg\L	.
.	.	.	.	.	.	.	.	.	.	24aa 24ff\	.	.	.	.	.	.	.	24ff\	.	24aa\	.
.	.	.	.	.	.	.	.	.	.	24ggJJ 24ee\	.	.	.	.	.	.	.	24ee\JJ	.	24gg\JJ	.
=18	=18	=18	=18	=18	=18	=18	=18	=18	=18	=18	=18	=18	=18	=18	=18	=18	=18	=18	=18	=18	=18
8CL 8CC\	.	8C/L	.	8ccL 8c/	.	8c\L	.	8ccL 8c\	.	8eeL 8cc\	.	8ccL 8e\	.	8cccL 8ee\	.	8cL 8C/	.	8cc/L|	.	8ee\L|	.
*tuplet	*	*	*	*	*	*Xtuplet	*	*	*	*Xtuplet	*	*Xtuplet	*	*Xtuplet	*	*	*	*	*	*	*
!LO:TUP:a	!	!	!	!	!	!	!	!	!	!	!	!	!	!	!	!LO:TUP:b:problem:klamra łukowa	!	!LO:TUP:b:problem:klamra łukowa	!	!LO:TUP:a:problem:klamra łukowa	!
24G\L	.	8GG/	.	8g 8G/	.	24G\L	.	8g\	.	24ggL 24g\	.	24ggL 24g\	.	24gg\L	.	24G/L	.	24g/L	.	24gg\L	.
24A\	.	.	.	.	.	24A\	.	.	.	24aa 24a\	.	24aa 24a\	.	24aa\	.	24A/	.	24a/	.	24aa\	.
24B\JJ	.	.	.	.	.	24B\JJ	.	.	.	24bbJJ 24b\	.	24bbJJ 24b\	.	24bb\JJ	.	24B/JJ	.	24b/JJ	.	24bb\JJ	.
8c\L	.	8C/	.	8cc 8c/	.	8c\L	.	8cc 8c\	.	8cccL 8cc\	.	8cccL 8cc\	.	8ccc\L	.	8c/L|	.	8cc/L|	.	8ccc\L|	.
!LO:TUP:a	!	!	!	!	!	!	!	!	!	!	!	!	!	!	!	!LO:TUP:b:problem:klamra łukowa	!	!LO:TUP:b:problem:klamra łukowa	!	!LO:TUP:a:problem:klamra łukowa	!
24G\L	.	8GG/	.	8g 8G/	.	24G\L	.	8g\	.	24ggL 24g\	.	24ggL 24g\	.	24gg\L	.	24G/L	.	24g/L	.	24gg\L	.
24A\	.	.	.	.	.	24A\	.	.	.	24aa 24a\	.	24aa 24a\	.	24aa\	.	24A/	.	24a/	.	24aa\	.
24B\JJ	.	.	.	.	.	24B\JJ	.	.	.	24bbJJ 24b\	.	24bbJJ 24b\	.	24bb\JJ	.	24B/JJ	.	24b/JJ	.	24bb\JJ	.
8c\L	.	8C/	.	8cc 8c/	.	8c\L	.	8cc 8c\	.	8cccL 8cc\	.	8cccL 8cc\	.	8ccc\L	.	8c/L|	.	8cc/L|	.	8ccc\L|	.
!LO:TUP:a	!	!	!	!	!	!	!	!	!	!	!	!	!	!	!	!LO:TUP:b:problem:klamra łukowa	!	!LO:TUP:b:problem:klamra łukowa	!	!LO:TUP:a:problem:klamra łukowa	!
24G\L	.	8GG/J	.	8gJ 8G/	.	24G\L	.	8g\J	.	24ggL 24g\	.	24ggL 24g\	.	24gg\L	.	24G/L	.	24g/L	.	24gg\L	.
24A\	.	.	.	.	.	24A\	.	.	.	24aa 24a\	.	24aa 24a\	.	24aa\	.	24A/	.	24a/	.	24aa\	.
24B\JJ	.	.	.	.	.	24B\JJ	.	.	.	24bbJJ 24b\	.	24bbJJ 24b\	.	24bb\JJ	.	24B/JJ	.	24b/JJ	.	24bb\JJ	.
=19	=19	=19	=19	=19	=19	=19	=19	=19	=19	=19	=19	=19	=19	=19	=19	=19	=19	=19	=19	=19	=19
*	*	*	*	*	*	*	*	*	*	*^	*	*^	*	*^	*	*	*	*	*	*	*
*	*	*	*	*	*	*	*	*	*	*	*	*	*	*	*	*2\right	*	*	*tremolo	*	*tremolo	*	*	*
8c\L	.	4C/	.	4cc 4c/	.	4c\	.	2cc 2c\	.	2ccc/	2cc\	.	16ccc/LL	2cc\	.	2ccc\	4ryy	.	16c\LL	.	16cc\LL	.	16ccc\LL	.
.	.	.	.	.	.	.	.	.	.	.	.	.	16bb/	.	.	.	.	.	16c\	.	16cc\	.	16bb\	.
8c\	.	.	.	.	.	.	.	.	.	.	.	.	16aa/	.	.	.	.	.	16c\	.	16cc\	.	16aa\	.
.	.	.	.	.	.	.	.	.	.	.	.	.	16gg/JJ	.	.	.	.	.	16c\JJ	.	16cc\	.	16gg\JJ	.
8E\	.	4r	.	4r	.	4E\	.	.	.	.	.	.	16ff/LL	.	.	.	4ryy	.	16g\LL	.	16cc\	.	16ff\LL	.
.	.	.	.	.	.	.	.	.	.	.	.	.	16ee/	.	.	.	.	.	16g\	.	16cc\	.	16ee\	.
8E\	.	.	.	.	.	.	.	.	.	.	.	.	16dd/	.	.	.	.	.	16g\	.	16cc\	.	16dd\	.
.	.	.	.	.	.	.	.	.	.	.	.	.	16cc/JJ	.	.	.	.	.	16g\JJ	.	16cc\JJ	.	16cc\JJ	.
8F\	.	4r	.	4r	.	4F\	.	4a 4f\	.	8aa/L	8ff\L	.	16aa/LL	4a\	.	8aa/L	8aa\L	.	16f\LL	.	16a\LL	.	16aa\LL	.
.	.	.	.	.	.	.	.	.	.	.	.	.	16ee/	.	.	.	.	.	16f\	.	16a\	.	16ee\	.
8F\J	.	.	.	.	.	.	.	.	.	8ff/J	8dd\J	.	16ff/	.	.	8ddd/J	8ff\J	.	16f\	.	16a\	.	16ff\	.
.	.	.	.	.	.	.	.	.	.	.	.	.	16dd/JJ	.	.	.	.	.	16f\JJ	.	16a\JJ	.	16dd\JJ	.
*	*	*	*	*	*	*	*	*	*	*	*	*	*	*	*	*	*	*	*Xtremolo	*	*Xtremolo	*	*	*
*	*	*	*	*	*	*	*	*	*	*v	*v	*	*	*	*	*v	*v	*	*	*	*	*	*	*
=20	=20	=20	=20	=20	=20	=20	=20	=20	=20	=20	=20	=20	=20	=20	=20	=20	=20	=20	=20	=20	=20	=20
*	*	*	*	*	*	*	*	*^	*	*	*	*	*	*	*	*	*	*	*	*	*	*
!LO:TX:t=P:problem:mixed beam	!	!	!	!	!	!LO:TX:t=P:problem:mixed beam	!	!	!	!	!	!	!	!	!	!	!	!LO:TX:t=P:problem:mixed beam	!	!	!	!	!
8G\L	.	8r	.	8r	.	8G\L	.	8g/L	8g\L	.	16eeLL 16cc\	.	16cc/LL	8.g\L	.	16cccLL 16ee\	.	(16e\LL	.	(16e/LL	.	(16cc\LL	.
.	.	.	.	.	.	.	.	.	.	.	16dd 16b\	.	16b/	.	.	16bb 16dd\	.	16g\)	.	16d/)	.	16b\)	.
8GG/J	.	16GG/LL	.	8dd 8g\	.	8GG/J	.	16g/L	16g\L	.	16gg 16ee\	.	16ee/	.	.	16eee 16gg\	.	16G/	.	16g'/	.	16ee'\	.
.	.	16GG/JJ	.	.	.	.	.	16g/JJ	16g\JJ	.	16ffJJ 16dd\	.	16dd/JJ	16b\Jk	.	16dddJJ 16ff\	.	16B/JJ	.	16f'/JJ	.	16dd'\JJ	.
8r	.	8GG/L	.	4dd 4g\	.	8r	.	8g/L	8g\L	.	(4ff 4dd\	.	4dd/	4b\	.	4ddd 4ff\	.	(4B/	.	(4f/	.	4dd\	.
8GG/	.	8GG/J	.	.	.	8GG/	.	8g/J	8g\J	.	.	.	.	.	.	.	.	.	.	.	.	.	.
4C/	.	4C/	.	4cc 4e\	.	4C/	.	4c/	4c\	.	8ee 8cc\)	.	8cc/	8cc\	.	8ccc 8ee\	.	8c/)	.	8e/)	.	8cc\	.
.	.	.	.	.	.	.	.	.	.	.	8r	.	8r	8ryy	.	8r	.	8r	.	8r	.	8r	.
*	*	*	*	*	*	*	*	*	*	*	*	*	*v	*v	*	*	*	*	*	*	*	*	*
=21:|!|:	=21:|!|:	=21:|!|:	=21:|!|:	=21:|!|:	=21:|!|:	=21:|!|:	=21:|!|:	=21:|!|:	=21:|!|:	=21:|!|:	=21:|!|:	=21:|!|:	=21:|!|:	=21:|!|:	=21:|!|:	=21:|!|:	=21:|!|:	=21:|!|:	=21:|!|:	=21:|!|:	=21:|!|:	=21:|!|:
*>C	*>C	*>C	*>C	*>C	*>C	*>C	*>C	*>C	*>C	*>C	*>C	*>C	*>C	*>C	*>C	*>C	*>C	*>C	*>C	*>C	*>C	*>C
*	*	*	*	*^	*	*	*	*	*	*	*^	*	*	*	*^	*	*	*	*	*	*	*
*	*	*	*	*	*	*	*	*	*	*	*	*	*	*	*	*	*	*	*	*tremolo	*	*tremolo	*	*	*
!	!LO:DY:rj	!	!LO:DY:rj	!	!	!LO:DY:rj	!	!	!	!	!	!	!	!	!	!	!	!	!	!	!	!	!	!	!
4G 4GG\	f	4GG/	f	4g/	4g\	f	[2.B [>2.G\	.	[2.g/	2.g\	.	[2.dd/	[>2.b\	.	[2.gg [>2.b\	.	[2.ggg/	[>2.bb\	.	16g\LL	.	16bLL 16d/	.	8gg 8b 8d\	.
.	.	.	.	.	.	.	.	.	.	.	.	.	.	.	.	.	.	.	.	16g\	.	16b 16d/	.	.	.
.	.	.	.	.	.	.	.	.	.	.	.	.	.	.	.	.	.	.	.	16g\	.	16b 16d/	.	(32aa\LLL	.
.	.	.	.	.	.	.	.	.	.	.	.	.	.	.	.	.	.	.	.	.	.	.	.	32gg\	.
.	.	.	.	.	.	.	.	.	.	.	.	.	.	.	.	.	.	.	.	16g\	.	16b 16d/	.	32ff#X\	.
.	.	.	.	.	.	.	.	.	.	.	.	.	.	.	.	.	.	.	.	.	.	.	.	32gg\JJJ)	.
4G 4GG\	.	4GG/	.	4g/	4g\	.	.	.	.	.	.	.	.	.	.	.	.	.	.	16g\	.	16b 16d/	.	8bb'\L	.
.	.	.	.	.	.	.	.	.	.	.	.	.	.	.	.	.	.	.	.	16g\	.	16b 16d/	.	.	.
.	.	.	.	.	.	.	.	.	.	.	.	.	.	.	.	.	.	.	.	16g\	.	16b 16d/	.	8gg'\	.
.	.	.	.	.	.	.	.	.	.	.	.	.	.	.	.	.	.	.	.	16g\	.	16b 16d/	.	.	.
4G 4GG\	.	4GG/	.	4g/	4g\	.	.	.	.	.	.	.	.	.	.	.	.	.	.	16g\	.	16b 16d/	.	8dd'\	.
.	.	.	.	.	.	.	.	.	.	.	.	.	.	.	.	.	.	.	.	16g\	.	16b 16d/	.	.	.
.	.	.	.	.	.	.	.	.	.	.	.	.	.	.	.	.	.	.	.	16g\	.	16b 16d/	.	8b'\J	.
.	.	.	.	.	.	.	.	.	.	.	.	.	.	.	.	.	.	.	.	16g\JJ	.	16bJJ 16d/	.	.	.
=22	=22	=22	=22	=22	=22	=22	=22	=22	=22	=22	=22	=22	=22	=22	=22	=22	=22	=22	=22	=22	=22	=22	=22	=22	=22
*	*	*	*	*	*	*	*	*	*	*	*	*	*	*	*	*	*	*	*	*rep	*	*rep	*	*	*
8G\L	.	4GG/	.	2.g/	2.g\	.	2.B] 2.G\]	.	2.g/]	2.g\	.	2.dd/]	2.b\]	.	2.gg] 2.b\]	.	2.ggg/]	2.bb\]	.	16g\LL	.	16bLL 16d/	.	[4g/	.
.	.	.	.	.	.	.	.	.	.	.	.	.	.	.	.	.	.	.	.	16g\	.	16b 16d/	.	.	.
8D\	.	.	.	.	.	.	.	.	.	.	.	.	.	.	.	.	.	.	.	16g\	.	16b 16d/	.	.	.
.	.	.	.	.	.	.	.	.	.	.	.	.	.	.	.	.	.	.	.	16g\	.	16b 16d/	.	.	.
8G\	.	4r	.	.	.	.	.	.	.	.	.	.	.	.	.	.	.	.	.	16g\	.	16b 16d/	.	16g/LL]	.
.	.	.	.	.	.	.	.	.	.	.	.	.	.	.	.	.	.	.	.	16g\	.	16b 16d/	.	16a/	.
8D\	.	.	.	.	.	.	.	.	.	.	.	.	.	.	.	.	.	.	.	16g\	.	16b 16d/	.	16b/	.
.	.	.	.	.	.	.	.	.	.	.	.	.	.	.	.	.	.	.	.	16g\	.	16b 16d/	.	16cc/JJ	.
8B\	.	4r	.	.	.	.	.	.	.	.	.	.	.	.	.	.	.	.	.	16g\	.	16b 16d/	.	16dd\LL	.
.	.	.	.	.	.	.	.	.	.	.	.	.	.	.	.	.	.	.	.	16g\	.	16b 16d/	.	16ee\	.
8G\J	.	.	.	.	.	.	.	.	.	.	.	.	.	.	.	.	.	.	.	16g\	.	16b 16d/	.	16ffn\	.
.	.	.	.	.	.	.	.	.	.	.	.	.	.	.	.	.	.	.	.	16g\JJ	.	16bJJ 16d/	.	16gg\JJ	.
*	*	*	*	*	*	*	*	*	*	*	*	*	*	*	*	*	*	*	*	*Xrep	*	*Xrep	*	*	*
!!LO:PB:g=original
=23	=23	=23	=23	=23	=23	=23	=23	=23	=23	=23	=23	=23	=23	=23	=23	=23	=23	=23	=23	=23	=23	=23	=23	=23	=23
4d 4D\	.	4C/	.	4dd/	4dd\	.	[2.c [>2.A\	.	[2.a/	[>2.f#X\	.	[2.dd/	[>2.cc\	.	[2.ff#X [>2.cc\	.	[2.fff#X/	[>2.aa\	.	16aLL 16f#X\	.	16ccLL 16d/	.	8.ff#XL 8.a 8.d\|	.
.	.	.	.	.	.	.	.	.	.	.	.	.	.	.	.	.	.	.	.	16a 16f#\	.	16cc 16d/	.	.	.
.	.	.	.	.	.	.	.	.	.	.	.	.	.	.	.	.	.	.	.	16a 16f#\	.	16cc 16d/	.	.	.
.	.	.	.	.	.	.	.	.	.	.	.	.	.	.	.	.	.	.	.	16aJJ 16f#\	.	16cc 16d/	.	(32aa\LL	.
.	.	.	.	.	.	.	.	.	.	.	.	.	.	.	.	.	.	.	.	.	.	.	.	32gg\JJJ	.
4d 4D\	.	4C/	.	4dd/	4dd\	.	.	.	.	.	.	.	.	.	.	.	.	.	.	16aLL 16f#\	.	16cc 16d/	.	8ff#X\L)	.
.	.	.	.	.	.	.	.	.	.	.	.	.	.	.	.	.	.	.	.	16a 16f#\	.	16cc 16d/	.	.	.
.	.	.	.	.	.	.	.	.	.	.	.	.	.	.	.	.	.	.	.	16a 16f#\	.	16cc 16d/	.	8cc\|	.
.	.	.	.	.	.	.	.	.	.	.	.	.	.	.	.	.	.	.	.	16aJJ 16f#\	.	16cc 16d/	.	.	.
4d 4D\	.	4C/	.	4dd/	4dd\	.	.	.	.	.	.	.	.	.	.	.	.	.	.	16aLL 16f#\	.	16cc 16d/	.	8a\|	.
.	.	.	.	.	.	.	.	.	.	.	.	.	.	.	.	.	.	.	.	16a 16f#\	.	16cc 16d/	.	.	.
.	.	.	.	.	.	.	.	.	.	.	.	.	.	.	.	.	.	.	.	16a 16f#\	.	16cc 16d/	.	8f#X\J|	.
.	.	.	.	.	.	.	.	.	.	.	.	.	.	.	.	.	.	.	.	16aJJ 16f#\	.	16ccJJ 16d/	.	.	.
=24	=24	=24	=24	=24	=24	=24	=24	=24	=24	=24	=24	=24	=24	=24	=24	=24	=24	=24	=24	=24	=24	=24	=24	=24	=24
8dL 8D\	.	4C/	.	2dd/	2dd\	.	2c] 2A\]	.	2a/]	2f#\]	.	2dd/]	2cc\]	.	2ff#] 2cc\]	.	2fff#/]	2aa\]	.	16aLL 16f#X\	.	16ccLL 16d/	.	8.d/L	.
.	.	.	.	.	.	.	.	.	.	.	.	.	.	.	.	.	.	.	.	16a 16f#\	.	16cc 16d/	.	.	.
8D\	.	.	.	.	.	.	.	.	.	.	.	.	.	.	.	.	.	.	.	16a 16f#\	.	16cc 16d/	.	.	.
.	.	.	.	.	.	.	.	.	.	.	.	.	.	.	.	.	.	.	.	16aJJ 16f#\	.	16cc 16d/	.	16e/Jk	.
8F#X\	.	4r	.	.	.	.	.	.	.	.	.	.	.	.	.	.	.	.	.	16aLL 16f#\	.	16cc 16d/	.	16f#X\LL	.
.	.	.	.	.	.	.	.	.	.	.	.	.	.	.	.	.	.	.	.	16a 16f#\	.	16cc 16d/	.	16g\	.
8D\	.	.	.	.	.	.	.	.	.	.	.	.	.	.	.	.	.	.	.	16a 16f#\	.	16cc 16d/	.	16a\	.
.	.	.	.	.	.	.	.	.	.	.	.	.	.	.	.	.	.	.	.	16aJJ 16f#\	.	16cc 16d/	.	16b\JJ	.
!	!	!	!	!	!	!	!	!	!	!	!	!	!	!	!	!	!LO:TX:a:t=Flautino\nSolo	!	!	!	!	!	!	!	!
8A\	.	4r	.	4r	4ryy	.	4r	.	4r	4ryy	.	4r	4ryy	.	4r	.	4r	4ryy	.	16aLL 16f#\	.	16cc 16d/	.	16cc\LL	.
.	.	.	.	.	.	.	.	.	.	.	.	.	.	.	.	.	.	.	.	16a 16f#\	.	16cc 16d/	.	16dd\	.
8D\J	.	.	.	.	.	.	.	.	.	.	.	.	.	.	.	.	.	.	.	16a 16f#\	.	16cc 16d/	.	16ee\	.
.	.	.	.	.	.	.	.	.	.	.	.	.	.	.	.	.	.	.	.	16aJJ 16f#\	.	16ccJJ 16d/	.	16ff#X\JJ	.
*	*	*	*	*	*	*	*	*	*	*	*	*	*	*	*	*	*	*	*	*Xtremolo	*	*Xtremolo	*	*	*
*	*	*	*	*	*	*	*	*	*v	*v	*	*	*	*	*	*	*v	*v	*	*	*	*	*	*	*
*	*	*	*	*v	*v	*	*	*	*	*	*v	*v	*	*	*	*	*	*	*	*	*	*	*
=25	=25	=25	=25	=25	=25	=25	=25	=25	=25	=25	=25	=25	=25	=25	=25	=25	=25	=25	=25	=25	=25
8G\	.	2.r	.	2.r	.	2.r	.	2.r	.	2.r	.	2.r	.	8gg'\L	.	8g\	.	8b 8d/	.	8gg\	.
8r	p	.	.	.	.	.	.	.	.	.	.	.	.	(16bb\L	.	8r	p	8r	p	8r	p
.	.	.	.	.	.	.	.	.	.	.	.	.	.	16ddd\JJ)	.	.	.	.	.	.	.
8G\	.	.	.	.	.	.	.	.	.	.	.	.	.	8gg'\L	.	8g\	.	8b 8d/	.	8b 8d/	.
8r	.	.	.	.	.	.	.	.	.	.	.	.	.	(16bb\L	.	8r	.	8r	.	8r	.
.	.	.	.	.	.	.	.	.	.	.	.	.	.	16ddd\JJ)	.	.	.	.	.	.	.
8G\	.	.	.	.	.	.	.	.	.	.	.	.	.	8gg'\L	.	8g\	.	8b 8d/	.	8b 8d/	.
8r	.	.	.	.	.	.	.	.	.	.	.	.	.	(16bb\L	.	8r	.	8r	.	8ryy	.
.	.	.	.	.	.	.	.	.	.	.	.	.	.	16ddd\JJ)	.	.	.	.	.	.	.
=26	=26	=26	=26	=26	=26	=26	=26	=26	=26	=26	=26	=26	=26	=26	=26	=26	=26	=26	=26	=26	=26
!	!	!	!	!	!	!	!	!	!	!	!	!	!	!	!	!	!	!LO:TX:a:t=Col V&colon; 1	!	!	!
4D\	.	2.r	.	2.r	.	2.r	.	2.r	.	2.r	.	2.r	.	(16ccc\LL	.	8aL 8f#X\	.	8ccLyy 8d/yy	.	8ccL 8d/	.
.	.	.	.	.	.	.	.	.	.	.	.	.	.	16bb\JJ)	.	.	.	.	.	.	.
.	.	.	.	.	.	.	.	.	.	.	.	.	.	(4aa^<\	.	16aL 16f#\	.	16ccLyy 16d/yy	.	16ccL 16d/	.
.	.	.	.	.	.	.	.	.	.	.	.	.	.	.	.	16aJJ 16f#\	.	16ccJJyy 16d/yy	.	16ccJJ 16d/	.
*	*	*	*	*	*	*	*	*	*	*	*	*	*	*	*	*tremolo	*	*tremoloy	*	*tremolo	*
8r	.	.	.	.	.	.	.	.	.	.	.	.	.	.	.	8aL 8f#\	.	8ccLyy 8d/yy	.	8ccL 8d/	.
8D\L	.	.	.	.	.	.	.	.	.	.	.	.	.	16gg\LL	.	8a 8f#\	.	8ccyy 8d/yy	.	8cc 8d/	.
.	.	.	.	.	.	.	.	.	.	.	.	.	.	16ff#X\JJ	.	.	.	.	.	.	.
8D\	.	.	.	.	.	.	.	.	.	.	.	.	.	16ee\LL	.	8a 8f#\	.	8ccyy 8d/yy	.	8cc 8d/	.
.	.	.	.	.	.	.	.	.	.	.	.	.	.	16dd\	.	.	.	.	.	.	.
8D\J	.	.	.	.	.	.	.	.	.	.	.	.	.	16ee\	.	8aJ 8f#\	.	8ccJyy 8d/yy	.	8ccJ 8d/	.
.	.	.	.	.	.	.	.	.	.	.	.	.	.	16ff#\JJ)	.	.	.	.	.	.	.
*	*	*	*	*	*	*	*	*	*	*	*	*	*	*	*	*Xtremolo	*	*Xtremolo	*	*Xtremolo	*
=27	=27	=27	=27	=27	=27	=27	=27	=27	=27	=27	=27	=27	=27	=27	=27	=27	=27	=27	=27	=27	=27
8G\	.	2.r	.	2.r	.	2.r	.	2.r	.	2.r	.	2.r	.	8gg'\L	.	8g\	.	8byy 8d/yy	.	8b 8d/	.
8r	.	.	.	.	.	.	.	.	.	.	.	.	.	(16bb\L	.	8r	.	8ryy	.	8r	.
.	.	.	.	.	.	.	.	.	.	.	.	.	.	16ddd\JJ)	.	.	.	.	.	.	.
8G\	.	.	.	.	.	.	.	.	.	.	.	.	.	8gg'\L	.	8g\	.	8byy 8d/yy	.	8b 8d/	.
8r	.	.	.	.	.	.	.	.	.	.	.	.	.	(16bb\L	.	8r	.	8ryy	.	8r	.
.	.	.	.	.	.	.	.	.	.	.	.	.	.	16ddd\JJ)	.	.	.	.	.	.	.
8G\	.	.	.	.	.	.	.	.	.	.	.	.	.	8gg'\L	.	8g\	.	8byy 8d/yy	.	8b 8d/	.
8r	.	.	.	.	.	.	.	.	.	.	.	.	.	(16bb\L	.	8r	.	8ryy	.	8r	.
.	.	.	.	.	.	.	.	.	.	.	.	.	.	16ddd\JJ)	.	.	.	.	.	.	.
=28	=28	=28	=28	=28	=28	=28	=28	=28	=28	=28	=28	=28	=28	=28	=28	=28	=28	=28	=28	=28	=28
4D\	.	2.r	.	2.r	.	2.r	.	2.r	.	2.r	.	2.r	.	(16ccc\LL	.	8aL 8f#X\	.	8ccLyy 8d/yy	.	8ccL 8d/	.
.	.	.	.	.	.	.	.	.	.	.	.	.	.	16bb\JJ)	.	.	.	.	.	.	.
.	.	.	.	.	.	.	.	.	.	.	.	.	.	(4aa^<\	.	16aL 16f#\	.	16ccLyy 16d/yy	.	16ccL 16d/	.
.	.	.	.	.	.	.	.	.	.	.	.	.	.	.	.	16aJJ 16f#\	.	16ccJJyy 16d/yy	.	16ccJJ 16d/	.
*	*	*	*	*	*	*	*	*	*	*	*	*	*	*	*	*tremolo	*	*tremoloy	*	*tremolo	*
8r	.	.	.	.	.	.	.	.	.	.	.	.	.	.	.	8aL 8f#\	.	8ccLyy 8d/yy	.	8ccL 8d/	.
8D\L	.	.	.	.	.	.	.	.	.	.	.	.	.	16gg\LL	.	8a 8f#\	.	8ccyy 8d/yy	.	8cc 8d/	.
.	.	.	.	.	.	.	.	.	.	.	.	.	.	16ff#X\JJ	.	.	.	.	.	.	.
8D\	.	.	.	.	.	.	.	.	.	.	.	.	.	16ee\LL	.	8a 8f#\	.	8ccyy 8d/yy	.	8cc 8d/	.
.	.	.	.	.	.	.	.	.	.	.	.	.	.	16dd\	.	.	.	.	.	.	.
8D\J	.	.	.	.	.	.	.	.	.	.	.	.	.	16ee\	.	8aJ 8f#\	.	8ccJyy 8d/yy	.	8ccJ 8d/	.
.	.	.	.	.	.	.	.	.	.	.	.	.	.	16ff#\JJ)	.	.	.	.	.	.	.
*	*	*	*	*	*	*	*	*	*	*	*	*	*	*	*	*Xtremolo	*	*Xtremolo	*	*Xtremolo	*
=29	=29	=29	=29	=29	=29	=29	=29	=29	=29	=29	=29	=29	=29	=29	=29	=29	=29	=29	=29	=29	=29
*	*	*	*	*	*	*	*	*	*	*^	*	*	*	*	*	*	*	*	*	*	*
4G\	.	2.r	.	2.r	.	2.r	.	2.r	.	4r	2.r	.	4r	.	8gg'\L	.	4g\	.	4byy 4d/yy	.	4b 4d/	.
.	.	.	.	.	.	.	.	.	.	.	.	.	.	.	(16gg\L	.	.	.	.	.	.	.
.	.	.	.	.	.	.	.	.	.	.	.	.	.	.	16bb\JJ)	.	.	.	.	.	.	.
8r	.	.	.	.	.	.	.	.	.	8r	.	.	8r	.	4.ddT\	.	8r	.	8ryy	.	8r	.
8G\L	.	.	.	.	.	.	.	.	.	8dd/L	.	.	8bbL 8gg'\	p	.	.	8g\L	.	8bLyy 8d/yy	.	8bL 8d/	.
8D\	.	.	.	.	.	.	.	.	.	8dd/	.	.	8ccc 8aa'\	.	.	.	8a\	.	8ccyy 8d/yy	.	8cc 8d/	.
8D\J	.	.	.	.	.	.	.	.	.	8dd/J	.	.	8aaJ 8ff#X'\	.	(16ee\LL	.	8a\J	.	8ccJyy 8d/yy	.	8ccJ 8d/	.
.	.	.	.	.	.	.	.	.	.	.	.	.	.	.	16ff#X\JJ)	.	.	.	.	.	.	.
=30	=30	=30	=30	=30	=30	=30	=30	=30	=30	=30	=30	=30	=30	=30	=30	=30	=30	=30	=30	=30	=30	=30
4G\	.	2.r	.	2.r	.	2.r	.	2.r	.	4dd/	2.r	.	4bb 4gg\	.	8gg'\L	.	4g\	.	4byy 4d/yy	.	4b 4d/	.
.	.	.	.	.	.	.	.	.	.	.	.	.	.	.	(16gg\L	.	.	.	.	.	.	.
.	.	.	.	.	.	.	.	.	.	.	.	.	.	.	16bb\JJ)	.	.	.	.	.	.	.
8r	.	.	.	.	.	.	.	.	.	8r	.	.	8r	.	4.ddT\	.	8r	.	8ryy	.	8r	.
8G\L	.	.	.	.	.	.	.	.	.	8dd/L	.	.	8bbL 8gg'\	.	.	.	8g\L	.	8bLyy 8d/yy	.	8bL 8d/	.
8D\	.	.	.	.	.	.	.	.	.	8dd/	.	.	8ccc 8aa'\	.	.	.	8a\	.	8ccyy 8d/yy	.	8cc 8d/	.
8D\J	.	.	.	.	.	.	.	.	.	8dd/J	.	.	8aaJ 8ff#X'\	.	16ee\LL	.	8a\J	.	8ccJyy 8d/yy	.	8ccJ 8d/	.
.	.	.	.	.	.	.	.	.	.	.	.	.	.	.	16ff#X\JJ	.	.	.	.	.	.	.
!!LO:PB:g=original
=31	=31	=31	=31	=31	=31	=31	=31	=31	=31	=31	=31	=31	=31	=31	=31	=31	=31	=31	=31	=31	=31	=31
8G\	.	2.r	.	2.r	.	2.r	.	2.r	.	4dd/	2.r	.	8bb 8gg\	.	(16gg\LL	.	8g\	.	8byy 8d/yy	.	8b 8d/	.
.	.	.	.	.	.	.	.	.	.	.	.	.	.	.	16aa\	.	.	.	.	.	.	.
8r	.	.	.	.	.	.	.	.	.	.	.	.	8r	.	16bb\	.	8r	.	8ryy	.	8r	.
.	.	.	.	.	.	.	.	.	.	.	.	.	.	.	16ccc\JJ	.	.	.	.	.	.	.
8G\	.	.	.	.	.	.	.	.	.	4r	.	.	4r	.	8ddd\L)	.	8g\	.	8byy 8d/yy	.	8b 8d/	.
8r	.	.	.	.	.	.	.	.	.	.	.	.	.	.	8bb'\	.	8r	.	8ryy	.	8r	.
8C/	.	.	.	.	.	.	.	.	.	4r	.	.	4r	.	8ccc'\	.	8c/	.	8ccyy 8e/yy	.	8cc 8e/	.
8r	.	.	.	.	.	.	.	.	.	.	.	.	.	.	8eee'\J	.	8r	.	8ryy	.	8r	.
*	*	*	*	*	*	*	*	*	*	*v	*v	*	*	*	*	*	*	*	*	*	*	*
=32	=32	=32	=32	=32	=32	=32	=32	=32	=32	=32	=32	=32	=32	=32	=32	=32	=32	=32	=32	=32	=32
4D\	.	2.r	.	2.r	.	2.r	.	2.r	.	2.r	.	2.r	.	(16ddd\LL	.	4d\	.	8g'/L	.	8bL 8d'/	.
.	.	.	.	.	.	.	.	.	.	.	.	.	.	16bb\)	.	.	.	.	.	.	.
.	.	.	.	.	.	.	.	.	.	.	.	.	.	16ccc'\	.	.	.	8f#X'/J	.	8ccJ 8d'/	.
.	.	.	.	.	.	.	.	.	.	.	.	.	.	16aa'\JJ	.	.	.	.	.	.	.
8r	.	.	.	.	.	.	.	.	.	.	.	.	.	(4aa\	.	8r	.	(4f#/	.	(>4cc 4d/	.
8D\	.	.	.	.	.	.	.	.	.	.	.	.	.	.	.	8d\	.	.	.	.	.
4G\	.	.	.	.	.	.	.	.	.	.	.	.	.	8gg\)	.	4g\	.	8g/)	.	8b) 8d/	.
!	!	!	!	!	!	!	!	!	!	!LO:TX:a:t=d' al Segno.	!	!	!	!	!	!	!	!	!	!	!
!LO:TX:a:t=[segno]:problem:znak segno na kresce taktowej	!	!LO:TX:a:t=[segno]:problem:znak segno na kresce taktowej	!	!LO:TX:a:t=[segno]:problem:znak segno na kresce taktowej	!	!LO:TX:a:t=[segno]:problem:znak segno na kresce taktowej	!	!LO:TX:a:t=[segno]:problem:znak segno na kresce taktowej	!	!LO:TX:a:t=[segno]:problem:znak segno na kresce taktowej	!	!LO:TX:a:t=[segno]:problem:znak segno na kresce taktowej	!	!LO:TX:a:t=[segno]:problem:znak segno na kresce taktowej	!	!LO:TX:a:t=[segno]:problem:znak segno na kresce taktowej	!	!LO:TX:a:t=[segno]:problem:znak segno na kresce taktowej	!	!LO:TX:a:t=[segno]:problem:znak segno na kresce taktowej	!
.	.	.	.	.	.	.	.	.	.	.	.	.	.	8r	.	.	.	8r	.	8r	.
!!LO:PB:g=original
=33||	=33||	=33||	=33||	=33||	=33||	=33||	=33||	=33||	=33||	=33||	=33||	=33||	=33||	=33||	=33||	=33||	=33||	=33||	=33||	=33||	=33||
!!!OMD: Trio
*>D	*>D	*>D	*>D	*>D	*>D	*>D	*>D	*>D	*>D	*>D	*>D	*>D	*>D	*>D	*>D	*>D	*>D	*>D	*>D	*>D	*>D
*k[b-]	*	*k[b-]	*	*k[b-]	*	*k[b-]	*	*k[b-]	*	*k[b-]	*	*k[b-]	*	*k[b-]	*	*k[b-]	*	*k[b-]	*	*k[b-]	*
*M3/4	*	*M3/4	*	*M3/4	*	*M3/4	*	*M3/4	*	*M3/4	*	*M3/4	*	*M3/4	*	*M3/4	*	*M3/4	*	*M3/4	*
*	*	*	*	*	*	*	*	*^	*	*	*	*	*	*	*	*	*	*	*	*	*
!	!	!	!	!	!	!	!	!	!	!	!	!	!	!	!	!	!	!	!	!	!LO:TX:b:t=piʒʒic	!
!LO:TX:b:t=pizzic	!	!	!LO:DY:rj	!	!	!	!LO:DY:rj	!	!	!LO:DY:rj	!	!LO:DY:rj	!	!LO:DY:rj	!	!	!LO:TX:b:t=pizzic	!	!LO:TX:b:t=pizzic	!	!	!
8F\L	.	8C/L	pp	2.r	.	8AL 8F\	p	2.r	8F\L	p	8aL 8c/	p	8aL 8f/	p	2.r	.	8f\L	.	8fL 8A/	.	8aL 8f/	.
8F\	.	16C/L	.	.	.	16AL 16F\	.	.	16F\L	.	16aL 16c/	.	16aL 16f/	.	.	.	8f\	.	8c/J	.	8a 8f/	.
.	.	16C/JJ	.	.	.	16AJJ 16F\	.	.	16F\JJ	.	16aJJ 16c/	.	16aJJ 16f/	.	.	.	.	.	.	.	.	.
*	*	*	*	*	*	*tremolo	*	*	*tremolo	*	*tremolo	*	*tremolo	*	*	*	*	*	*tremolo	*	*	*
8F\	.	8C/L	.	.	.	8AL 8F\	.	.	8F\L	.	8aL 8c/	.	8aL 8f/	.	.	.	8f\	.	8c/L	.	8a 8f/	.
8F\	.	8C/	.	.	.	8A 8F\	.	.	8F\	.	8a 8c/	.	8a 8f/	.	.	.	8f\	.	8c/	.	8a 8f/	.
8F\	.	8C/	.	.	.	8A 8F\	.	.	8F\	.	8a 8c/	.	8a 8f/	.	.	.	8f\	.	8c/	.	8a 8f/	.
8F\J	.	8C/J	.	.	.	8AJ 8F\	.	.	8F\J	.	8aJ 8c/	.	8aJ 8f/	.	.	.	8f\J	.	8c/J	.	8aJ 8f/	.
=34	=34	=34	=34	=34	=34	=34	=34	=34	=34	=34	=34	=34	=34	=34	=34	=34	=34	=34	=34	=34	=34	=34
*tremolo	*	*	*	*	*	*	*	*	*	*	*	*	*	*	*	*	*tremolo	*	*	*	*tremolo	*
*2\right	*	*	*	*	*	*	*	*	*	*	*	*	*	*	*	*	*	*	*	*	*	*
8F\L	.	8C/L	.	2.r	.	8AL 8F\	.	4r	8F\L	.	8aL 8c/	.	8aL 8f/	.	2.r	.	8f\L	.	8c/L	.	8aL 8f/	.
8F\	.	8C/	.	.	.	8A 8F\	.	.	8F\	.	8a 8c/	.	8a 8f/	.	.	.	8f\	.	8c/	.	8a 8f/	.
8F\	.	8C/	.	.	.	8A 8F\	.	4r	8F\	.	8a 8c/	.	8a 8f/	.	.	.	8f\	.	8c/	.	8a 8f/	.
8F\	.	8C/	.	.	.	8A 8F\	.	.	8F\	.	8a 8c/	.	8a 8f/	.	.	.	8f\	.	8c/	.	8a 8f/	.
8F\	.	8C/	.	.	.	8A 8F\	.	4c/	8F\	.	8a 8c/	.	8a 8f/	.	.	.	8f\	.	8c/	.	8a 8f/	.
!	!	!	!	!	!	!	!	!	!	!	!	!	!	!	!	!	!	!	!	!	!LO:TX:a:t=P:problem:wymazane segno we wszystkich głosach	!
8F\J	.	8C/J	.	.	.	8AJ 8F\	.	.	8F\J	.	8aJ 8c/	.	8aJ 8f/	.	.	.	8f\J	.	8c/J	.	8aJ 8f/	.
*	*	*	*	*	*	*Xtremolo	*	*	*Xtremolo	*	*Xtremolo	*	*Xtremolo	*	*	*	*	*	*	*	*	*
=35	=35	=35	=35	=35	=35	=35	=35	=35	=35	=35	=35	=35	=35	=35	=35	=35	=35	=35	=35	=35	=35	=35
8F\L	.	4C/	.	2.r	.	4A 4F\	.	2cc\	4F\	.	4a 4c/	.	4a 4f/	.	2.r	.	8f\L	.	8c/L	.	8aL 8f/	.
8F\	.	.	.	.	.	.	.	.	.	.	.	.	.	.	.	.	8f\	.	8c/	.	8a 8f/	.
8F\	.	4r	.	.	.	4r	.	.	4rF	.	4r	.	4r	.	.	.	8f\	.	8c/	.	8a 8f/	.
8F\	.	.	.	.	.	.	.	.	.	.	.	.	.	.	.	.	8f\	.	8c/	.	8a 8f/	.
8F\	.	4r	.	.	.	4r	.	8.a\L	4rF	.	4r	.	4r	.	.	.	8f\	.	8c/	.	8a 8f/	.
8F\J	.	.	.	.	.	.	.	.	.	.	.	.	.	.	.	.	8f\J	.	8c/J	.	8aJ 8f/	.
.	.	.	.	.	.	.	.	16f\Jk	.	.	.	.	.	.	.	.	.	.	.	.	.	.
*	*	*	*	*	*	*	*	*	*	*	*	*	*	*	*	*	*Xtremolo	*	*	*	*Xtremolo	*
=36	=36	=36	=36	=36	=36	=36	=36	=36	=36	=36	=36	=36	=36	=36	=36	=36	=36	=36	=36	=36	=36	=36
8F\L	.	2.r	.	2.r	.	2.r	.	8g/L	2.r	.	2.r	.	2.r	.	2.r	.	8e\L	.	8c/L	.	8b-L 8g/	.
8F\	.	.	.	.	.	.	.	8c/J	.	.	.	.	.	.	.	.	8e\J	.	8c/	.	8b-J 8g/	.
*	*	*	*	*	*	*	*	*	*	*	*	*	*	*	*	*	*tremolo	*	*	*	*tremolo	*
8F\	.	.	.	.	.	.	.	4.f/	.	.	.	.	.	.	.	.	8f\L	.	8c/	.	8aL 8f/	.
!	!	!	!	!	!	!	!	!	!	!LO:HP:a	!	!	!	!	!	!	!	!	!	!	!	!
8F\	.	.	.	.	.	.	.	.	.	>	.	.	.	.	.	.	8f\	.	8c/	.	8a 8f/	.
8F\	.	.	.	.	.	.	.	.	.	]	.	.	.	.	.	.	8f\	.	8c/	.	8a 8f/	.
8F\J	.	.	.	.	.	.	.	8a/	.	.	.	.	.	.	.	.	8f\J	.	8c/J	.	8aJ 8f/	.
*	*	*	*	*	*	*	*	*	*	*	*	*	*	*	*	*	*Xtremolo	*	*	*	*Xtremolo	*
=37	=37	=37	=37	=37	=37	=37	=37	=37	=37	=37	=37	=37	=37	=37	=37	=37	=37	=37	=37	=37	=37	=37
8F\L	.	2.r	.	2.r	.	2.r	.	8g/L	2.r	.	2.r	.	2.r	.	2.r	.	8e\L	.	8c/L	.	8b-L 8g/	.
8F\	.	.	.	.	.	.	.	8c/J	.	.	.	.	.	.	.	.	8e\J	.	8c/	.	8b-J 8g/	.
*	*	*	*	*	*	*	*	*	*	*	*	*	*	*	*	*	*tremolo	*	*	*	*tremolo	*
8F\	.	.	.	.	.	.	.	4.f/	.	.	.	.	.	.	.	.	8f\L	.	8c/	.	8aL 8f/	.
8F\	.	.	.	.	.	.	.	.	.	.	.	.	.	.	.	.	8f\	.	8c/	.	8a 8f/	.
8F\	.	.	.	.	.	.	.	.	.	.	.	.	.	.	.	.	8f\	.	8c/	.	8a 8f/	.
8F\J	.	.	.	.	.	.	.	16g/LL	.	.	.	.	.	.	.	.	8f\J	.	8c/J	.	8aJ 8f/	.
.	.	.	.	.	.	.	.	16a/JJ	.	.	.	.	.	.	.	.	.	.	.	.	.	.
*Xtremolo	*	*	*	*	*	*	*	*	*	*	*	*	*	*	*	*	*Xtremolo	*	*	*	*Xtremolo	*
=38	=38	=38	=38	=38	=38	=38	=38	=38	=38	=38	=38	=38	=38	=38	=38	=38	=38	=38	=38	=38	=38	=38
!	!	!	!LO:DY:rj	!	!	!	!	!	!	!	!	!	!	!	!	!	!	!	!	!	!	!
8E\L	.	8C/L	pp	2.r	.	2.r	.	8b-/L	8g\L	.	2.r	.	4r	.	2.r	.	8c\L	.	8c/L	.	8b-L 8g/	.
8E\	.	16C/L	.	.	.	.	.	8b-/	8g\	.	.	.	.	.	.	.	8c\	.	8c/	.	8b- 8g/	.
.	.	16C/JJ	.	.	.	.	.	.	.	.	.	.	.	.	.	.	.	.	.	.	.	.
8F\	.	8C/L	.	.	.	.	.	8a/	8f\	.	.	.	4r	.	.	.	8c\	.	8c/	.	8a 8f/	.
8F\J	.	8C/	.	.	.	.	.	8a/J	8f\J	.	.	.	.	.	.	.	8c\J	.	8c/	.	8aJ 8f/	.
4C\	.	8C/	.	.	.	.	.	8g/L	8c\	.	.	.	(16ggLL 16g\	.	.	.	4e 4c\	.	8c/	.	8gL 8c/	.
.	.	.	.	.	.	.	.	.	.	.	.	.	16aa 16a\	.	.	.	.	.	.	.	.	.
.	.	8C/J	.	.	.	.	.	8c/J	8r	.	.	.	16bb- 16b-\	.	.	.	.	.	8c/J	.	8c/J	.
.	.	.	.	.	.	.	.	.	.	.	.	.	16bbnJJ 16bn\	.	.	.	.	.	.	.	.	.
=39	=39	=39	=39	=39	=39	=39	=39	=39	=39	=39	=39	=39	=39	=39	=39	=39	=39	=39	=39	=39	=39	=39
*	*	*	*	*	*	*	*	*	*	*	*	*	*^	*	*	*	*	*	*	*	*	*
*tremolo	*	*	*	*	*	*	*	*	*	*	*	*	*	*	*	*	*	*tremolo	*	*	*	*tremolo	*
8F\L	.	4C/	.	2.r	.	2.r	.	2cc/	2.r	.	2.r	.	2ccc/)	4cc\	.	2.r	.	8f\L	.	8c/L	.	8aL 8f/	.
8F\	.	.	.	.	.	.	.	.	.	.	.	.	.	.	.	.	.	8f\	.	8c/	.	8a 8f/	.
8F\	.	4r	.	.	.	.	.	.	.	.	.	.	.	4r	.	.	.	8f\	.	8c/	.	8a 8f/	.
8F\	.	.	.	.	.	.	.	.	.	.	.	.	.	.	.	.	.	8f\	.	8c/	.	8a 8f/	.
8F\	.	4r	.	.	.	.	.	8.a/L	.	.	.	.	(>8.aaL/	4r	.	.	.	8f\	.	8c/	.	8a 8f/	.
8F\J	.	.	.	.	.	.	.	.	.	.	.	.	.	.	.	.	.	8f\J	.	8c/J	.	8aJ 8f/	.
.	.	.	.	.	.	.	.	16f/Jk	.	.	.	.	16ffJk/)	.	.	.	.	.	.	.	.	.	.
*	*	*	*	*	*	*	*	*	*	*	*	*	*	*	*	*	*	*Xtremolo	*	*	*	*Xtremolo	*
=40	=40	=40	=40	=40	=40	=40	=40	=40	=40	=40	=40	=40	=40	=40	=40	=40	=40	=40	=40	=40	=40	=40	=40
8F\L	.	2.r	.	2.r	.	2.r	.	8g/L	2.r	.	2.r	.	8ggL/	2.r	.	2.r	.	8e\L	.	8c/L	.	8b-L 8g/	.
8F\	.	.	.	.	.	.	.	8c/J	.	.	.	.	8ccJ/	.	.	.	.	8e\J	.	8c/	.	8b-J 8g/	.
*	*	*	*	*	*	*	*	*	*	*	*	*	*	*	*	*	*	*tremolo	*	*	*	*tremolo	*
8F\	.	.	.	.	.	.	.	4.f/	.	.	.	.	(<4.ff/	.	.	.	.	8f\L	.	8c/	.	8aL 8f/	.
!	!	!	!	!	!	!	!	!	!	!LO:HP:a	!	!	!	!	!	!	!	!	!	!	!	!	!
8F\	.	.	.	.	.	.	.	.	.	>	.	.	.	.	.	.	.	8f\	.	8c/	.	8a 8f/	.
8F\	.	.	.	.	.	.	.	.	.	]	.	.	.	.	.	.	.	8f\	.	8c/	.	8a 8f/	.
8F\J	.	.	.	.	.	.	.	8a/	.	.	.	.	8aa/)	.	.	.	.	8f\J	.	8c/J	.	8aJ 8f/	.
*Xtremolo	*	*	*	*	*	*	*	*	*	*	*	*	*	*	*	*	*	*Xtremolo	*	*	*	*Xtremolo	*
=41	=41	=41	=41	=41	=41	=41	=41	=41	=41	=41	=41	=41	=41	=41	=41	=41	=41	=41	=41	=41	=41	=41	=41
8F\L	.	2.r	.	2.r	.	2.r	.	8g/L	4r	.	2.r	.	8ggL/	4r	.	2.r	.	8e\L	.	8c/L	.	8b-L 8g/	.
8F\J	.	.	.	.	.	.	.	8c/J	.	.	.	.	8ccJ/	.	.	.	.	8e\J	.	8c/	.	8b-J 8g/	.
8F\L	.	.	.	.	.	.	.	8f/L	8A\L	.	.	.	8ffL/	8aL\	.	.	.	8f\L	.	8c/	.	8aL 8f/	.
8C\	.	.	.	.	.	.	.	8g/	8c\	.	.	.	8gg/	8cc\	.	.	.	8e\	.	8c/	.	8g 8c/	.
8F\	.	.	.	.	.	.	.	8a/	8f\	.	.	.	8aa/	8ff\	.	.	.	8f\	.	8c/	.	8a 8f/	.
8C\J	.	.	.	.	.	.	.	8b-/J	8g\J	.	.	.	8bb-J/	8ggJ\	.	.	.	8e\J	.	8c/J	.	8b-J 8g/	.
*	*	*	*	*	*	*	*	*	*	*	*	*	*	*	*	*	*	*	*	*Xtremolo	*	*	*
*	*	*	*	*	*	*	*	*	*	*	*	*	*v	*v	*	*	*	*	*	*	*	*	*
*	*	*	*	*	*	*	*	*v	*v	*	*	*	*	*	*	*	*	*	*	*	*	*
!!LO:PB:g=original
=42	=42	=42	=42	=42	=42	=42	=42	=42	=42	=42	=42	=42	=42	=42	=42	=42	=42	=42	=42	=42	=42
8F\L	.	2.r	.	2.r	.	2.r	.	(16ccLL 16a\	.	2.r	.	(16cccLL 16aa\	.	2.r	.	8f\L	.	8c/L	.	8aL 8f/	.
.	.	.	.	.	.	.	.	16b- 16g\)	.	.	.	16bb- 16gg\)	.	.	.	.	.	.	.	.	.
8C\J	.	.	.	.	.	.	.	16a 16f'\	.	.	.	16aa 16ff'\	.	.	.	8e\J	.	8c/J	.	8b-J 8g/	.
.	.	.	.	.	.	.	.	16gJJ 16c'\	.	.	.	16ggJJ 16ee'\	.	.	.	.	.	.	.	.	.
8r	.	.	.	.	.	.	.	(4g 4c\	.	.	.	4gg 4ee\	.	.	.	8r	.	8r	.	8r	.
8C\	.	.	.	.	.	.	.	.	.	.	.	.	.	.	.	8e\	.	8c/	.	8b- 8g/	.
4F\	.	.	.	.	.	.	.	8f 8A\)	.	.	.	8ff\	.	.	.	4f\	.	4c/	.	4a 4f/	.
.	.	.	.	.	.	.	.	8r	.	.	.	8r	.	.	.	.	.	.	.	.	.
=43:|!|:	=43:|!|:	=43:|!|:	=43:|!|:	=43:|!|:	=43:|!|:	=43:|!|:	=43:|!|:	=43:|!|:	=43:|!|:	=43:|!|:	=43:|!|:	=43:|!|:	=43:|!|:	=43:|!|:	=43:|!|:	=43:|!|:	=43:|!|:	=43:|!|:	=43:|!|:	=43:|!|:	=43:|!|:
*>E	*>E	*>E	*>E	*>E	*>E	*>E	*>E	*>E	*>E	*>E	*>E	*>E	*>E	*>E	*>E	*>E	*>E	*>E	*>E	*>E	*>E
!	!	!	!	!	!	!	!	!	!	!LO:TX:a:t=Flageoletto\nSolo	!	!	!	!	!	!	!	!	!	!	!
8C/	.	2.r	.	2.r	.	2.r	.	2.r	.	(16cc\LL	.	2.r	.	2.r	.	8r	.	8r	.	8r	.
.	.	.	.	.	.	.	.	.	.	16bb-\)	.	.	.	.	.	.	.	.	.	.	.
8r	.	.	.	.	.	.	.	.	.	16gg'\	.	.	.	.	.	8e\	.	8c/	.	8b- 8g\	.
.	.	.	.	.	.	.	.	.	.	16ee'\JJ	.	.	.	.	.	.	.	.	.	.	.
*	*	*	*	*	*	*	*	*	*	*rep	*	*	*	*	*	*	*	*	*	*	*
8C/	.	.	.	.	.	.	.	.	.	(16cc\LL	.	.	.	.	.	8r	.	8r	.	8r	.
.	.	.	.	.	.	.	.	.	.	16bb-\)	.	.	.	.	.	.	.	.	.	.	.
8r	.	.	.	.	.	.	.	.	.	16gg'\	.	.	.	.	.	8e\	.	8c/	.	8b- 8g\	.
.	.	.	.	.	.	.	.	.	.	16ee'\JJ	.	.	.	.	.	.	.	.	.	.	.
*	*	*	*	*	*	*	*	*	*	*Xrep	*	*	*	*	*	*	*	*	*	*	*
*	*	*	*	*	*	*	*	*	*	*rep	*	*	*	*	*	*	*	*	*	*	*
8C/	.	.	.	.	.	.	.	.	.	(16cc\LL	.	.	.	.	.	8r	.	8r	.	8r	.
.	.	.	.	.	.	.	.	.	.	16bb-\)	.	.	.	.	.	.	.	.	.	.	.
8r	.	.	.	.	.	.	.	.	.	16gg'\	.	.	.	.	.	8e\	.	8c/	.	8b- 8g\	.
.	.	.	.	.	.	.	.	.	.	16ee'\JJ	.	.	.	.	.	.	.	.	.	.	.
*	*	*	*	*	*	*	*	*	*	*Xrep	*	*	*	*	*	*	*	*	*	*	*
=44	=44	=44	=44	=44	=44	=44	=44	=44	=44	=44	=44	=44	=44	=44	=44	=44	=44	=44	=44	=44	=44
8F\	.	2.r	.	2.r	.	2.r	.	2.r	.	(16ff\LL	.	2.r	.	2.r	.	8r	.	8r	.	8r	.
.	.	.	.	.	.	.	.	.	.	16aa\)	.	.	.	.	.	.	.	.	.	.	.
8r	.	.	.	.	.	.	.	.	.	16ddd'\	.	.	.	.	.	8f\	.	8c/	.	8a 8f\	.
.	.	.	.	.	.	.	.	.	.	16ccc'\JJ	.	.	.	.	.	.	.	.	.	.	.
8A\	.	.	.	.	.	.	.	.	.	(16bbn\LL	.	.	.	.	.	8r	.	8r	.	8r	.
.	.	.	.	.	.	.	.	.	.	16ccc\)	.	.	.	.	.	.	.	.	.	.	.
8r	.	.	.	.	.	.	.	.	.	16ddd'\	.	.	.	.	.	8f\	.	8c/	.	8a 8f\	.
.	.	.	.	.	.	.	.	.	.	16ccc'\JJ	.	.	.	.	.	.	.	.	.	.	.
.	.	.	.	.	.	.	.	.	.	16qqbbn/	.	.	.	.	.	.	.	.	.	.	.
8F\	.	.	.	.	.	.	.	.	.	(8.cccT\L	.	.	.	.	.	8r	.	8r	.	8r	.
8r	.	.	.	.	.	.	.	.	.	.	.	.	.	.	.	8f\	.	8c/	.	8a 8f\	.
.	.	.	.	.	.	.	.	.	.	32bb\LL	.	.	.	.	.	.	.	.	.	.	.
.	.	.	.	.	.	.	.	.	.	32ccc\JJJ)	.	.	.	.	.	.	.	.	.	.	.
=45	=45	=45	=45	=45	=45	=45	=45	=45	=45	=45	=45	=45	=45	=45	=45	=45	=45	=45	=45	=45	=45
8C/	.	2.r	.	2.r	.	2.r	.	2.r	.	(16cc\LL	.	2.r	.	2.r	.	8r	.	8r	.	8r	.
.	.	.	.	.	.	.	.	.	.	16bb-X\)	.	.	.	.	.	.	.	.	.	.	.
!	!	!	!	!	!	!	!	!	!	!	!	!	!	!	!	!LO:TX:a:t=e	!	!	!	!	!
8r	.	.	.	.	.	.	.	.	.	16gg'\	.	.	.	.	.	8e\	.	8c/	.	8b- 8g\	.
.	.	.	.	.	.	.	.	.	.	16ee'\JJ	.	.	.	.	.	.	.	.	.	.	.
*	*	*	*	*	*	*	*	*	*	*rep	*	*	*	*	*	*	*	*	*	*	*
8C/	.	.	.	.	.	.	.	.	.	(16cc\LL	.	.	.	.	.	8r	.	8r	.	8r	.
.	.	.	.	.	.	.	.	.	.	16bb-\)	.	.	.	.	.	.	.	.	.	.	.
8r	.	.	.	.	.	.	.	.	.	16gg'\	.	.	.	.	.	8e\	.	8c/	.	8b- 8g\	.
.	.	.	.	.	.	.	.	.	.	16ee'\JJ	.	.	.	.	.	.	.	.	.	.	.
*	*	*	*	*	*	*	*	*	*	*Xrep	*	*	*	*	*	*	*	*	*	*	*
*	*	*	*	*	*	*	*	*	*	*rep	*	*	*	*	*	*	*	*	*	*	*
8C/	.	.	.	.	.	.	.	.	.	(16cc\LL	.	.	.	.	.	8r	.	8r	.	8r	.
.	.	.	.	.	.	.	.	.	.	16bb-\)	.	.	.	.	.	.	.	.	.	.	.
8r	.	.	.	.	.	.	.	.	.	16gg'\	.	.	.	.	.	8e\	.	8c/	.	8b- 8g\	.
.	.	.	.	.	.	.	.	.	.	16ee'\JJ	.	.	.	.	.	.	.	.	.	.	.
*	*	*	*	*	*	*	*	*	*	*Xrep	*	*	*	*	*	*	*	*	*	*	*
=46	=46	=46	=46	=46	=46	=46	=46	=46	=46	=46	=46	=46	=46	=46	=46	=46	=46	=46	=46	=46	=46
8F\	.	2.r	.	2.r	.	2.r	.	2.r	.	(16ff\LL	.	2.r	.	2.r	.	8r	.	8r	.	8r	.
.	.	.	.	.	.	.	.	.	.	16aa\)	.	.	.	.	.	.	.	.	.	.	.
8r	.	.	.	.	.	.	.	.	.	16ddd'\	.	.	.	.	.	8f\	.	8c/	.	8a 8f\	.
.	.	.	.	.	.	.	.	.	.	16ccc'\JJ	.	.	.	.	.	.	.	.	.	.	.
8A\	.	.	.	.	.	.	.	.	.	(16bbn\LL	.	.	.	.	.	8r	.	8r	.	8r	.
.	.	.	.	.	.	.	.	.	.	16ccc\)	.	.	.	.	.	.	.	.	.	.	.
8r	.	.	.	.	.	.	.	.	.	16ddd'\	.	.	.	.	.	8f\	.	8c/	.	8a 8f\	.
.	.	.	.	.	.	.	.	.	.	16ccc'\JJ	.	.	.	.	.	.	.	.	.	.	.
8F\	.	.	.	.	.	.	.	.	.	8.cccT\L	.	.	.	.	.	8r	.	8r	.	8r	.
8r	.	.	.	.	.	.	.	.	.	.	.	.	.	.	.	8f\	.	8c/	.	8a 8f\	.
.	.	.	.	.	.	.	.	.	.	32bbn\LL	.	.	.	.	.	.	.	.	.	.	.
.	.	.	.	.	.	.	.	.	.	32ccc\JJJ	.	.	.	.	.	.	.	.	.	.	.
=47	=47	=47	=47	=47	=47	=47	=47	=47	=47	=47	=47	=47	=47	=47	=47	=47	=47	=47	=47	=47	=47
!	!	!	!	!	!	!	!	!	!	!	!	!	!	!LO:TX:a:t=Flautino\nSolo	!	!	!	!	!	!	!
8B-\	.	2.r	.	2.r	.	2.r	.	2.r	.	8ddd'\L	.	2.r	.	8bb-X'\L	.	8f 8B-\	.	8d 8B-/	.	8b- 8d/	.
8r	.	.	.	.	.	.	.	.	.	(16ddd\L	.	.	.	(16bb-\L	.	8r	.	8r	.	8r	.
.	.	.	.	.	.	.	.	.	.	16ccc#X\JJ)	.	.	.	16aa\JJ)	.	.	.	.	.	.	.
8BB-/	.	.	.	.	.	.	.	.	.	8ddd\L	.	.	.	8bb-'\L	.	8f 8B-\	.	8d 8B-/	.	8b- 8d/	.
8r	.	.	.	.	.	.	.	.	.	(16ddd\L	.	.	.	(16bb-\L	.	8r	.	8r	.	8r	.
.	.	.	.	.	.	.	.	.	.	16ccc#X\JJ)	.	.	.	16aa\JJ)	.	.	.	.	.	.	.
4r	.	.	.	.	.	.	.	.	.	8ddd'\L	.	.	.	8bb-'\L	.	4r	.	4r	.	4r	.
.	.	.	.	.	.	.	.	.	.	16qqeee/	.	.	.	16qqccc#X/	.	.	.	.	.	.	.
.	.	.	.	.	.	.	.	.	.	8fff'\J	sf	.	.	8ddd'\J	sf	.	.	.	.	.	.
=48	=48	=48	=48	=48	=48	=48	=48	=48	=48	=48	=48	=48	=48	=48	=48	=48	=48	=48	=48	=48	=48
8B-\	.	2.r	.	2.r	.	2.r	.	2.r	.	8ddd\L	.	2.r	.	8bb-'\L	.	8f 8B-\	.	8d 8B-/	.	8b- 8d/	.
8r	.	.	.	.	.	.	.	.	.	(16ddd\L	.	.	.	(16bb-\L	.	8r	.	8r	.	8r	.
.	.	.	.	.	.	.	.	.	.	16ccc#X\JJ)	.	.	.	16aa\JJ)	.	.	.	.	.	.	.
8BB-/	.	.	.	.	.	.	.	.	.	8ddd'\L	.	.	.	8bb-'\L	.	8f 8B-\	.	8d 8B-/	.	8b- 8d/	.
8r	.	.	.	.	.	.	.	.	.	(16ddd\L	.	.	.	(16bb-\L	.	8r	.	8r	.	8r	.
.	.	.	.	.	.	.	.	.	.	16ccc#X\JJ)	.	.	.	16aa\JJ)	.	.	.	.	.	.	.
4r	.	.	.	.	.	.	.	.	.	8ddd\L	.	.	.	8bb-\L	.	4r	.	4r	.	4r	.
.	.	.	.	.	.	.	.	.	.	16qqeee/	.	.	.	16qqccc#X/	.	.	.	.	.	.	.
.	.	.	.	.	.	.	.	.	.	8fff\J	sf	.	.	8ddd\J	sf	.	.	.	.	.	.
!!LO:PB:g=original
=49	=49	=49	=49	=49	=49	=49	=49	=49	=49	=49	=49	=49	=49	=49	=49	=49	=49	=49	=49	=49	=49
8BB-/	.	2.r	.	2.r	.	2.r	.	2.r	.	8ddd\L	.	2.r	.	8bb-\L	.	8f 8B-\	.	8d 8B-/	.	8b- 8d/	.
8r	.	.	.	.	.	.	.	.	.	16ddd\L	.	.	.	16bb-\L	.	8r	.	8r	.	8r	.
.	.	.	.	.	.	.	.	.	.	16ccc#X\JJ	.	.	.	16aa\JJ	.	.	.	.	.	.	.
8BB-/	.	.	.	.	.	.	.	.	.	16ddd\LL	.	.	.	16bb-\LL	.	8f 8B-\	.	8d 8B-/	.	8b- 8d/	.
.	.	.	.	.	.	.	.	.	.	16eee\	.	.	.	16ccc\	.	.	.	.	.	.	.
8r	.	.	.	.	.	.	.	.	.	16fff\	.	.	.	16ddd\	.	8r	.	8r	.	8r	.
.	.	.	.	.	.	.	.	.	.	16eee\JJ	.	.	.	16ccc\JJ	.	.	.	.	.	.	.
8BB-/	.	.	.	.	.	.	.	.	.	16ddd\LL	.	.	.	16bb-\LL	.	8f 8B-\	.	8d 8B-/	.	8b- 8d/	.
.	.	.	.	.	.	.	.	.	.	16cccn\	.	.	.	16aa\	.	.	.	.	.	.	.
8r	.	.	.	.	.	.	.	.	.	16bb-X\	.	.	.	16gg\	.	8r	.	8r	.	8r	.
.	.	.	.	.	.	.	.	.	.	16aa\JJ	.	.	.	16ff\JJ	.	.	.	.	.	.	.
=50	=50	=50	=50	=50	=50	=50	=50	=50	=50	=50	=50	=50	=50	=50	=50	=50	=50	=50	=50	=50	=50
4C/	.	2.r	.	2.r	.	2.r	.	2.r	.	16gg\LL	.	16ggLL 16ee\	.	16ee\LL	.	4e 4c\	.	4e 4G/	.	4g 4c/	.
.	.	.	.	.	.	.	.	.	.	16aa\	.	16aa 16ff\	.	16ff\	.	.	.	.	.	.	.
.	.	.	.	.	.	.	.	.	.	16bb-\	.	16bb- 16gg\	.	16gg\	.	.	.	.	.	.	.
.	.	.	.	.	.	.	.	.	.	16aa\JJ	.	16aaJJ 16ff\	.	16ff\JJ	.	.	.	.	.	.	.
4r	.	.	.	.	.	.	.	.	.	16gg\LL	.	16ggLL 16ee\	.	16ee\LL	.	4r	.	4r	.	4r	.
.	.	.	.	.	.	.	.	.	.	16ff\	.	16ff 16dd\	.	16dd\	.	.	.	.	.	.	.
.	.	.	.	.	.	.	.	.	.	16ee\	.	16ee 16cc\	.	16cc\	.	.	.	.	.	.	.
.	.	.	.	.	.	.	.	.	.	16dd\JJ	.	16ddJJ 16b-\	.	16b-\JJ	.	.	.	.	.	.	.
4r	.	.	.	.	.	.	.	.	.	16cc\LL	.	16ccLL 16a/	.	16a/LL	.	4r	.	4r	.	4r	.
.	.	.	.	.	.	.	.	.	.	16b-\	.	16b- 16g/	.	16g/	.	.	.	.	.	.	.
.	.	.	.	.	.	.	.	.	.	16a\	.	16a 16f/	.	16f/	.	.	.	.	.	.	.
.	.	.	.	.	.	.	.	.	.	16g\JJ	.	16gJJ 16e/	.	16e/JJ	.	.	.	.	.	.	.
=51	=51	=51	=51	=51	=51	=51	=51	=51	=51	=51	=51	=51	=51	=51	=51	=51	=51	=51	=51	=51	=51
*	*	*	*	*	*	*	*	*^	*	*^	*	*	*	*	*	*	*	*	*	*	*
*tremolo	*	*	*	*	*	*	*	*	*	*	*	*	*	*	*	*	*	*tremolo	*	*	*	*tremolo	*
!	!	!	!LO:DY:rj	!	!	!	!	!LO:TX:b:t=Corn&colon; 2do	!	!	!LO:TX:b:t=Clar\n2do	!	!	!	!	!	!	!	!	!	!	!	!
8F\L	.	8C/L	pp	2.r	.	8AL 8F\	.	2.r	8F\L	.	4f/	8c\L	.	8aL 8f/	.	4f/	.	8f\L	.	8fL 8A/	.	8aL 8f/	.
8F\	.	16C/L	.	.	.	16AL 16F\	.	.	16F\L	.	.	16c\L	.	16aL 16f/	.	.	.	8f\	.	8c/J	.	8a 8f/	.
.	.	16C/JJ	.	.	.	16AJJ 16F\	.	.	16F\JJ	.	.	16c\JJ	.	16aJJ 16f/	.	.	.	.	.	.	.	.	.
*	*	*tremolo	*	*	*	*tremolo	*	*	*tremolo	*	*	*tremolo	*	*tremolo	*	*	*	*	*	*tremolo	*	*	*
*	*	*	*	*	*	*	*	*	*	*	*	*2\right	*	*	*	*	*	*	*	*	*	*	*
8F\	.	8C/L	.	.	.	8AL 8F\	.	.	8F\L	.	4r	8c\L	.	8aL 8f/	.	4r	.	8f\	.	8c/L	.	8a 8f/	.
8F\	.	8C/	.	.	.	8A 8F\	.	.	8F\	.	.	8c\	.	8a 8f/	.	.	.	8f\	.	8c/	.	8a 8f/	.
8F\	.	8C/	.	.	.	8A 8F\	.	.	8F\	.	4r	8c\	.	8a 8f/	.	4r	.	8f\	.	8c/	.	8a 8f/	.
8F\J	.	8C/J	.	.	.	8AJ 8F\	.	.	8F\J	.	.	8c\J	.	8aJ 8f/	.	.	.	8f\J	.	8c/J	.	8aJ 8f/	.
=52	=52	=52	=52	=52	=52	=52	=52	=52	=52	=52	=52	=52	=52	=52	=52	=52	=52	=52	=52	=52	=52	=52	=52
8F\L	.	8C/L	.	2.r	.	8AL 8F\	.	4r	8F\L	.	2.r	8c\L	.	8aL 8f/	.	2.r	.	8f\L	.	8c/L	.	8aL 8f/	.
8F\	.	8C/	.	.	.	8A 8F\	.	.	8F\	.	.	8c\	.	8a 8f/	.	.	.	8f\	.	8c/	.	8a 8f/	.
8F\	.	8C/	.	.	.	8A 8F\	.	4r	8F\	.	.	8c\	.	8a 8f/	.	.	.	8f\	.	8c/	.	8a 8f/	.
8F\	.	8C/	.	.	.	8A 8F\	.	.	8F\	.	.	8c\	.	8a 8f/	.	.	.	8f\	.	8c/	.	8a 8f/	.
8F\	.	8C/	.	.	.	8A 8F\	.	4c/	8F\	.	.	8c\	.	8a 8f/	.	.	.	8f\	.	8c/	.	8a 8f/	.
8F\J	.	8C/J	.	.	.	8AJ 8F\	.	.	8F\J	.	.	8c\J	.	8aJ 8f/	.	.	.	8f\J	.	8c/J	.	8aJ 8f/	.
*	*	*Xtremolo	*	*	*	*Xtremolo	*	*	*Xtremolo	*	*	*Xtremolo	*	*Xtremolo	*	*	*	*	*	*	*	*	*
=53	=53	=53	=53	=53	=53	=53	=53	=53	=53	=53	=53	=53	=53	=53	=53	=53	=53	=53	=53	=53	=53	=53	=53
*	*	*	*	*	*	*	*	*	*	*	*	*	*	*	*	*	*	*rep	*	*rep	*	*rep	*
8F\L	.	4C/	.	2.r	.	4A 4F\	.	2cc\	4F\	.	2.r	4c\	.	4a 4f/	.	2.r	.	8f\L	.	8c/L	.	8aL 8f/	.
8F\	.	.	.	.	.	.	.	.	.	.	.	.	.	.	.	.	.	8f\	.	8c/	.	8a 8f/	.
8F\	.	4r	.	.	.	4r	.	.	4r	.	.	4r	.	4r	.	.	.	8f\	.	8c/	.	8a 8f/	.
8F\	.	.	.	.	.	.	.	.	.	.	.	.	.	.	.	.	.	8f\	.	8c/	.	8a 8f/	.
8F\	.	4r	.	.	.	4r	.	8.a\L	4r	.	.	4r	.	4r	.	.	.	8f\	.	8c/	.	8a 8f/	.
8F\J	.	.	.	.	.	.	.	.	.	.	.	.	.	.	.	.	.	8f\J	.	8c/J	.	8aJ 8f/	.
.	.	.	.	.	.	.	.	16f\Jk	.	.	.	.	.	.	.	.	.	.	.	.	.	.	.
*	*	*	*	*	*	*	*	*	*	*	*	*	*	*	*	*	*	*Xrep	*	*Xrep	*	*Xrep	*
*	*	*	*	*	*	*	*	*	*	*	*	*	*	*	*	*	*	*Xtremolo	*	*	*	*Xtremolo	*
=54	=54	=54	=54	=54	=54	=54	=54	=54	=54	=54	=54	=54	=54	=54	=54	=54	=54	=54	=54	=54	=54	=54	=54
*	*	*	*	*	*	*	*	*	*	*	*	*	*	*	*	*	*	*	*	*rep	*	*	*
8F\L	.	2.r	.	2.r	.	2.r	.	8g'/L	2.r	.	2.r	2.r	.	2.r	.	2.r	.	8e\L	.	8c/L	.	8b-L 8g/	.
8F\	.	.	.	.	.	.	.	8c'/J	.	.	.	.	.	.	.	.	.	8e\J	.	8c/	.	8b-J 8g/	.
*	*	*	*	*	*	*	*	*	*	*	*	*	*	*	*	*	*	*tremolo	*	*	*	*tremolo	*
8F\	.	.	.	.	.	.	.	4.f/	.	.	.	.	.	.	.	.	.	8f\L	.	8c/	.	8aL 8f/	.
!	!	!	!	!	!	!	!	!	!	!LO:HP:a	!	!	!	!	!	!	!	!	!	!	!	!	!
8F\	.	.	.	.	.	.	.	.	.	>	.	.	.	.	.	.	.	8f\	.	8c/	.	8a 8f/	.
8F\	.	.	.	.	.	.	.	.	.	]	.	.	.	.	.	.	.	8f\	.	8c/	.	8a 8f/	.
8F\J	.	.	.	.	.	.	.	8a/	.	.	.	.	.	.	.	.	.	8f\J	.	8c/J	.	8aJ 8f/	.
*	*	*	*	*	*	*	*	*	*	*	*	*	*	*	*	*	*	*Xtremolo	*	*Xrep	*	*Xtremolo	*
=55	=55	=55	=55	=55	=55	=55	=55	=55	=55	=55	=55	=55	=55	=55	=55	=55	=55	=55	=55	=55	=55	=55	=55
*	*	*	*	*	*	*	*	*	*	*	*	*	*	*	*	*	*	*	*	*rep	*	*	*
8F\L	.	2.r	.	2.r	.	2.r	.	8g'/L	2.r	.	2.r	2.r	.	2.r	.	2.r	.	8e\L	.	8c/L	.	8b-L 8g/	.
8F\	.	.	.	.	.	.	.	8c'/J	.	.	.	.	.	.	.	.	.	8e\J	.	8c/	.	8b-J 8g/	.
*	*	*	*	*	*	*	*	*	*	*	*	*	*	*	*	*	*	*tremolo	*	*	*	*tremolo	*
8F\	.	.	.	.	.	.	.	4.f/	.	.	.	.	.	.	.	.	.	8f\L	.	8c/	.	8aL 8f/	.
8F\	.	.	.	.	.	.	.	.	.	.	.	.	.	.	.	.	.	8f\	.	8c/	.	8a 8f/	.
8F\	.	.	.	.	.	.	.	.	.	.	.	.	.	.	.	.	.	8f\	.	8c/	.	8a 8f/	.
8F\J	.	.	.	.	.	.	.	16g/LL	.	.	.	.	.	.	.	.	.	8f\J	.	8c/J	.	8aJ 8f/	.
.	.	.	.	.	.	.	.	16a/JJ	.	.	.	.	.	.	.	.	.	.	.	.	.	.	.
*Xtremolo	*	*	*	*	*	*	*	*	*	*	*	*	*	*	*	*	*	*	*	*Xrep	*	*Xtremolo	*
=56	=56	=56	=56	=56	=56	=56	=56	=56	=56	=56	=56	=56	=56	=56	=56	=56	=56	=56	=56	=56	=56	=56	=56
*	*	*	*	*	*	*	*	*	*	*	*	*	*	*	*	*	*	*	*	*rep	*	*	*
!	!	!	!LO:DY:rj	!	!	!	!	!	!	!	!	!	!	!	!	!	!	!	!	!	!	!	!
8E\L	.	8C/L	pp	2.r	.	2.r	.	8b-/L	8g\L	.	2.r	2.r	.	4r	.	2.r	.	8c\L	.	8c/L	.	8b-L 8g/	.
8E\	.	16C/L	.	.	.	.	.	8b-/	8g\	.	.	.	.	.	.	.	.	8c\	.	8c/	.	8b- 8g/	.
.	.	16C/JJ	.	.	.	.	.	.	.	.	.	.	.	.	.	.	.	.	.	.	.	.	.
*	*	*tremolo	*	*	*	*	*	*	*	*	*	*	*	*	*	*	*	*	*	*	*	*	*
8F\	.	8C/L	.	.	.	.	.	8a/	8f\	.	.	.	.	4r	.	.	.	8c\	.	8c/	.	8a 8f/	.
8F\J	.	8C/	.	.	.	.	.	8a/J	8f\J	.	.	.	.	.	.	.	.	8c\	.	8c/	.	8aJ 8f/	.
4C\	.	8C/	.	.	.	.	.	8g/L	4c\	.	.	.	.	16ggLL 16g\	.	.	.	8c\	.	8c/	.	8gL 8c/	.
.	.	.	.	.	.	.	.	.	.	.	.	.	.	16aa 16a\	.	.	.	.	.	.	.	.	.
.	.	8C/J	.	.	.	.	.	8c/J	.	.	.	.	.	16bb- 16b-\	.	.	.	8c\J	.	8c/J	.	8c/J	.
.	.	.	.	.	.	.	.	.	.	.	.	.	.	16bbnJJ 16bn\	.	.	.	.	.	.	.	.	.
*	*	*Xtremolo	*	*	*	*	*	*	*	*	*	*	*	*	*	*	*	*	*	*Xrep	*	*	*
=57	=57	=57	=57	=57	=57	=57	=57	=57	=57	=57	=57	=57	=57	=57	=57	=57	=57	=57	=57	=57	=57	=57	=57
*	*	*	*	*	*	*	*	*	*	*	*	*	*	*^	*	*	*	*	*	*	*	*	*
*tremolo	*	*	*	*	*	*	*	*	*	*	*	*	*	*	*	*	*	*	*	*	*rep	*	*tremolo	*
8F\L	.	4C/	.	2.r	.	2.r	.	2cc/	2.r	.	2.r	2.r	.	2ccc/	4cc\	.	2.r	.	8f\L	.	8c/L	.	8aL 8f/	.
8F\	.	.	.	.	.	.	.	.	.	.	.	.	.	.	.	.	.	.	8f\	.	8c/	.	8a 8f/	.
8F\	.	4r	.	.	.	.	.	.	.	.	.	.	.	.	4r	.	.	.	8f\	.	8c/	.	8a 8f/	.
8F\	.	.	.	.	.	.	.	.	.	.	.	.	.	.	.	.	.	.	8f\	.	8c/	.	8a 8f/	.
8F\	.	4r	.	.	.	.	.	8.a/L	.	.	.	.	.	8.aa/L	4r	.	.	.	8f\	.	8c/	.	8a 8f/	.
8F\J	.	.	.	.	.	.	.	.	.	.	.	.	.	.	.	.	.	.	8f\J	.	8c/J	.	8aJ 8f/	.
.	.	.	.	.	.	.	.	16f/Jk	.	.	.	.	.	16ff/Jk	.	.	.	.	.	.	.	.	.	.
*	*	*	*	*	*	*	*	*	*	*	*	*	*	*	*	*	*	*	*Xtremolo	*	*Xrep	*	*Xtremolo	*
=58	=58	=58	=58	=58	=58	=58	=58	=58	=58	=58	=58	=58	=58	=58	=58	=58	=58	=58	=58	=58	=58	=58	=58	=58
*	*	*	*	*	*	*	*	*	*	*	*	*	*	*	*	*	*	*	*	*	*rep	*	*	*
8F\L	.	2.r	.	2.r	.	2.r	.	8g'/L	2.r	.	2.r	2.r	.	8gg/L	2.r	.	2.r	.	8e\L	.	8c/L	.	8b-L 8g/	.
8F\	.	.	.	.	.	.	.	8c'/J	.	.	.	.	.	8cc/J	.	.	.	.	8e\J	.	8c/	.	8b-J 8g/	.
*	*	*	*	*	*	*	*	*	*	*	*	*	*	*	*	*	*	*	*tremolo	*	*	*	*tremolo	*
8F\	.	.	.	.	.	.	.	4.f/	.	.	.	.	.	4.ff/	.	.	.	.	8f\L	.	8c/	.	8aL 8f/	.
!	!	!	!	!	!	!	!	!	!	!LO:HP:a	!	!	!	!	!	!	!	!	!	!	!	!	!	!
8F\	.	.	.	.	.	.	.	.	.	>	.	.	.	.	.	.	.	.	8f\	.	8c/	.	8a 8f/	.
8F\	.	.	.	.	.	.	.	.	.	]	.	.	.	.	.	.	.	.	8f\	.	8c/	.	8a 8f/	.
8F\J	.	.	.	.	.	.	.	8a/	.	.	.	.	.	8aa/	.	.	.	.	8f\J	.	8c/J	.	8aJ 8f/	.
*Xtremolo	*	*	*	*	*	*	*	*	*	*	*	*	*	*	*	*	*	*	*Xtremolo	*	*Xrep	*	*Xtremolo	*
=59	=59	=59	=59	=59	=59	=59	=59	=59	=59	=59	=59	=59	=59	=59	=59	=59	=59	=59	=59	=59	=59	=59	=59	=59
*	*	*	*	*	*	*	*	*	*	*	*	*	*	*	*	*	*	*	*	*	*rep	*	*	*
8F\L	.	2.r	.	2.r	.	2.r	.	8g/L	8r	.	2.r	2.r	.	8gg/L	4r	.	2.r	.	8e\L	.	8c/L	.	8b-L 8g/	.
8F\	.	.	.	.	.	.	.	8c/J	8c\L	.	.	.	.	8cc/J	.	.	.	.	8e\	.	8c/	.	8b-J 8g/	.
8F\	.	.	.	.	.	.	.	8f/L	8f 8A\	.	.	.	.	8ff/L	8a\L	.	.	.	8f\	.	8c/	.	8aL 8f/	.
8C\	.	.	.	.	.	.	.	8g/	8gJ 8c\	.	.	.	.	8gg/	8cc\	.	.	.	8e\	.	8c/	.	8g 8c/	.
8F\	.	.	.	.	.	.	.	8a/	8f\L	.	.	.	.	8aa/	8ff\	.	.	.	8f\	.	8c/	.	8a 8f/	.
8C\J	.	.	.	.	.	.	.	8b-/J	8g\J	.	.	.	.	8bb-/J	8gg\J	.	.	.	8e\J	.	8c/J	.	8b-J 8g/	.
*	*	*	*	*	*	*	*	*	*	*	*	*	*	*	*	*	*	*	*	*	*Xrep	*	*	*
*	*	*	*	*	*	*	*	*	*	*	*	*	*	*	*	*	*	*	*	*	*Xtremolo	*	*	*
*	*	*	*	*	*	*	*	*	*	*	*	*	*	*v	*v	*	*	*	*	*	*	*	*	*
=60	=60	=60	=60	=60	=60	=60	=60	=60	=60	=60	=60	=60	=60	=60	=60	=60	=60	=60	=60	=60	=60	=60	=60
8F\L	.	2.r	.	2.r	.	2.r	.	16cc/LL	16a\LL	.	2.r	2.r	.	16cccLL 16aa\	.	2.r	.	8f\L	.	8c/L	.	8aL 8f/	.
.	.	.	.	.	.	.	.	16b-/	16g\	.	.	.	.	16bb- 16gg\	.	.	.	.	.	.	.	.	.
8C\J	.	.	.	.	.	.	.	16a/	16f\	.	.	.	.	16aa 16ff\	.	.	.	8e\J	.	8c/J	.	8b-J 8g/	.
.	.	.	.	.	.	.	.	16g/JJ	16c\JJ	.	.	.	.	16ggJJ 16ee\	.	.	.	.	.	.	.	.	.
8r	.	.	.	.	.	.	.	4g/	4c\	.	.	.	.	(4gg 4ee\	.	.	.	8r	.	8r	.	8r	.
8C\	.	.	.	.	.	.	.	.	.	.	.	.	.	.	.	.	.	8e\	.	8c/	.	8b- 8g/	.
4F\	.	.	.	.	.	.	.	8f/	8A\	.	.	.	.	8ff\)	.	.	.	4f\	.	4c/	.	4a 4f/	.
.	.	.	.	.	.	.	.	8r	8ryy	.	.	.	.	8r	.	.	.	.	.	.	.	.	.
*	*	*	*	*	*	*	*	*v	*v	*	*	*	*	*	*	*	*	*	*	*	*	*	*
*	*	*	*	*	*	*	*	*	*	*v	*v	*	*	*	*	*	*	*	*	*	*	*
=:|!	=:|!	=:|!	=:|!	=:|!	=:|!	=:|!	=:|!	=:|!	=:|!	=:|!	=:|!	=:|!	=:|!	=:|!	=:|!	=:|!	=:|!	=:|!	=:|!	=:|!	=:|!
*-	*-	*-	*-	*-	*-	*-	*-	*-	*-	*-	*-	*-	*-	*-	*-	*-	*-	*-	*-	*-	*-
!!!system-decoration: {[(s1,s2,s3)]([s4,s5,s6,s7]<s8>{s9,s10}s11)}
!!!RDF**kern: > = above
!!!RDF**kern: < = below
!!!RDF**kern: | = vertical stroke
!!!ENC: Marta Lawrence
!!!END: 2021-06-11
!!!ENC: Marcin Jachim
!!!END: 2021-05-29
